; generated by Slic3r 1.2.9 on 2016-04-21 at 08:51:20

; Used for printing the edge guides.  Much slower than "normal" and fills at 100% since there are so few layers.

; external perimeters extrusion width = 0.40mm
; perimeters extrusion width = 0.67mm
; infill extrusion width = 0.67mm
; solid infill extrusion width = 0.67mm
; top infill extrusion width = 0.67mm

M107 ; disable fan
M190 S60 ; set bed temperature
M104 S210 ; set temperature
G28 ; home all axes
G1 Z5 F5000 ; lift nozzle

M109 S210 ; wait for temperature to be reached
G21 ; set units to millimeters
G90 ; use absolute coordinates
M82 ; use absolute distances for extrusion
G92 E0 ; reset extrusion distance
G1 Z0.300 F9000.000 ; move to next layer (0)
G1 E-2.00000 F2400.00000 ; retract
G92 E0 ; reset extrusion distance
G1 X43.954 Y33.899 F9000.000 ; move to first skirt point
G1 E2.00000 F2400.00000 ; unretract
G1 X45.706 Y32.444 E2.15217 F900.000 ; skirt
G1 X48.942 Y31.587 E2.37579 ; skirt
G1 X150.542 Y31.587 E9.16322 ; skirt
G1 X152.785 Y31.984 E9.31539 ; skirt
G1 X154.755 Y33.127 E9.46756 F900.000 ; skirt
G1 X156.214 Y34.876 E9.61973 ; skirt
G1 X157.077 Y38.084 E9.84164 ; skirt
G1 X157.658 Y135.438 E16.34559 ; skirt
G1 X157.658 Y161.877 E18.11185 ; skirt
G1 X157.261 Y164.120 E18.26403 ; skirt
G1 X156.119 Y166.091 E18.41620 ; skirt
G1 X154.369 Y167.550 E18.56837 ; skirt
G1 X151.123 Y168.413 E18.79280 ; skirt
G1 X49.523 Y168.413 E25.58023 ; skirt
G1 X47.280 Y168.016 E25.73240 ; skirt
G1 X45.309 Y166.873 E25.88457 ; skirt
G1 X43.850 Y165.124 E26.03674 ; skirt
G1 X42.987 Y161.943 E26.25691 ; skirt
G1 X42.342 Y98.072 E30.52405 ; skirt
G1 X42.342 Y71.606 E32.29212 ; skirt
G1 X42.406 Y38.110 E34.52987 ; skirt
G1 X42.808 Y35.868 E34.68204 ; skirt
G1 X43.924 Y33.951 E34.83021 ; skirt
G1 E32.83021 F2400.00000 ; retract
G92 E0 ; reset extrusion distance
G1 X98.406 Y54.158 F9000.000 ; move to first perimeter point
G1 E2.00000 F2400.00000 ; unretract
G1 X98.406 Y52.158 E2.13361 F600.000 ; perimeter
G1 X97.903 Y52.158 E2.16726 ; perimeter
G1 X97.903 Y52.658 E2.20067 ; perimeter
G1 X95.231 Y52.658 E2.37912 ; perimeter
G1 X95.231 Y52.158 E2.41252 ; perimeter
G1 X94.728 Y52.158 E2.44618 ; perimeter
G1 X94.728 Y53.158 E2.51298 ; perimeter
G1 X92.056 Y53.158 E2.69144 ; perimeter
G1 X92.056 Y52.158 E2.75824 ; perimeter
G1 X91.553 Y52.158 E2.79190 ; perimeter
G1 X91.553 Y52.658 E2.82530 ; perimeter
G1 X88.881 Y52.658 E3.00375 ; perimeter
G1 X88.881 Y52.158 E3.03715 ; perimeter
G1 X88.378 Y52.158 E3.07081 ; perimeter
G1 X88.378 Y53.658 E3.17102 ; perimeter
G1 X85.706 Y53.658 E3.34947 ; perimeter
G1 X85.706 Y52.158 E3.44968 ; perimeter
G1 X85.203 Y52.158 E3.48333 ; perimeter
G1 X85.203 Y52.658 E3.51673 ; perimeter
G1 X82.531 Y52.658 E3.69519 ; perimeter
G1 X82.531 Y52.158 E3.72859 ; perimeter
G1 X82.028 Y52.158 E3.76224 ; perimeter
G1 X82.028 Y53.158 E3.82905 ; perimeter
G1 X79.356 Y53.158 E4.00750 ; perimeter
G1 X79.356 Y52.158 E4.07431 ; perimeter
G1 X78.853 Y52.158 E4.10796 ; perimeter
G1 X78.853 Y52.658 E4.14136 ; perimeter
G1 X76.181 Y52.658 E4.31982 ; perimeter
G1 X76.181 Y52.158 E4.35322 ; perimeter
G1 X75.678 Y52.158 E4.38687 ; perimeter
G1 X75.678 Y54.158 E4.52049 ; perimeter
G1 X73.006 Y54.158 E4.69894 ; perimeter
G1 X73.006 Y52.158 E4.83255 ; perimeter
G1 X72.503 Y52.158 E4.86620 ; perimeter
G1 X72.503 Y52.658 E4.89961 ; perimeter
G1 X69.831 Y52.658 E5.07806 ; perimeter
G1 X69.831 Y52.158 E5.11146 ; perimeter
G1 X69.328 Y52.158 E5.14512 ; perimeter
G1 X69.328 Y53.158 E5.21192 ; perimeter
G1 X66.656 Y53.158 E5.39037 ; perimeter
G1 X66.656 Y52.158 E5.45718 ; perimeter
G1 X66.153 Y52.158 E5.49083 ; perimeter
G1 X66.153 Y52.658 E5.52424 ; perimeter
G1 X63.481 Y52.658 E5.70269 ; perimeter
G1 X63.481 Y52.158 E5.73609 ; perimeter
G1 X62.978 Y52.158 E5.76975 ; perimeter
G1 X62.978 Y53.658 E5.86995 ; perimeter
G1 X60.306 Y53.658 E6.04841 ; perimeter
G1 X60.306 Y52.158 E6.14862 ; perimeter
G1 X59.803 Y52.158 E6.18227 ; perimeter
G1 X59.803 Y52.658 E6.21567 ; perimeter
G1 X57.131 Y52.658 E6.39413 ; perimeter
G1 X57.131 Y52.158 E6.42753 ; perimeter
G1 X56.628 Y52.158 E6.46118 ; perimeter
G1 X56.628 Y53.158 E6.52799 ; perimeter
G1 X53.956 Y53.158 E6.70644 ; perimeter
G1 X53.956 Y52.158 E6.77325 ; perimeter
G1 X53.453 Y52.158 E6.80690 ; perimeter
G1 X53.453 Y52.658 E6.84030 ; perimeter
G1 X50.781 Y52.658 E7.01876 ; perimeter
G1 X50.781 Y48.987 E7.26402 ; perimeter
G1 X53.453 Y48.987 E7.44247 ; perimeter
G1 X53.453 Y49.487 E7.47587 ; perimeter
G1 X53.956 Y49.487 E7.50953 ; perimeter
G1 X53.956 Y48.487 E7.57633 ; perimeter
G1 X56.628 Y48.487 E7.75478 ; perimeter
G1 X56.628 Y49.487 E7.82159 ; perimeter
G1 X57.131 Y49.487 E7.85524 ; perimeter
G1 X57.131 Y48.987 E7.88865 ; perimeter
G1 X59.803 Y48.987 E8.06710 ; perimeter
G1 X59.803 Y49.487 E8.10050 ; perimeter
G1 X60.306 Y49.487 E8.13416 ; perimeter
G1 X60.306 Y47.987 E8.23436 ; perimeter
G1 X62.978 Y47.987 E8.41282 ; perimeter
G1 X62.978 Y49.487 E8.51303 ; perimeter
G1 X63.481 Y49.487 E8.54668 ; perimeter
G1 X63.481 Y48.987 E8.58008 ; perimeter
G1 X66.153 Y48.987 E8.75854 ; perimeter
G1 X66.153 Y49.487 E8.79194 ; perimeter
G1 X66.656 Y49.487 E8.82559 ; perimeter
G1 X66.656 Y48.487 E8.89240 ; perimeter
G1 X69.328 Y48.487 E9.07085 ; perimeter
G1 X69.328 Y49.487 E9.13766 ; perimeter
G1 X69.831 Y49.487 E9.17131 ; perimeter
G1 X69.831 Y48.987 E9.20471 ; perimeter
G1 X72.503 Y48.987 E9.38317 ; perimeter
G1 X72.503 Y49.487 E9.41657 ; perimeter
G1 X73.006 Y49.487 E9.45022 ; perimeter
G1 X73.006 Y47.487 E9.58383 ; perimeter
G1 X75.678 Y47.487 E9.76229 ; perimeter
G1 X75.678 Y49.487 E9.89590 ; perimeter
G1 X76.181 Y49.487 E9.92955 ; perimeter
G1 X76.181 Y48.987 E9.96295 ; perimeter
G1 X78.853 Y48.987 E10.14141 ; perimeter
G1 X78.853 Y49.487 E10.17481 ; perimeter
G1 X79.356 Y49.487 E10.20846 ; perimeter
G1 X79.356 Y48.487 E10.27527 ; perimeter
G1 X82.028 Y48.487 E10.45372 ; perimeter
G1 X82.028 Y49.487 E10.52053 ; perimeter
G1 X82.531 Y49.487 E10.55418 ; perimeter
G1 X82.531 Y48.987 E10.58759 ; perimeter
G1 X85.203 Y48.987 E10.76604 ; perimeter
G1 X85.203 Y49.487 E10.79944 ; perimeter
G1 X85.706 Y49.487 E10.83310 ; perimeter
G1 X85.706 Y47.987 E10.93330 ; perimeter
G1 X88.378 Y47.987 E11.11176 ; perimeter
G1 X88.378 Y49.487 E11.21196 ; perimeter
G1 X88.881 Y49.487 E11.24562 ; perimeter
G1 X88.881 Y48.987 E11.27902 ; perimeter
G1 X91.553 Y48.987 E11.45747 ; perimeter
G1 X91.553 Y49.487 E11.49088 ; perimeter
G1 X92.056 Y49.487 E11.52453 ; perimeter
G1 X92.056 Y48.487 E11.59134 ; perimeter
G1 X94.728 Y48.487 E11.76979 ; perimeter
G1 X94.728 Y49.487 E11.83660 ; perimeter
G1 X95.231 Y49.487 E11.87025 ; perimeter
G1 X95.231 Y48.987 E11.90365 ; perimeter
G1 X97.903 Y48.987 E12.08211 ; perimeter
G1 X97.903 Y49.487 E12.11551 ; perimeter
G1 X98.406 Y49.487 E12.14916 ; perimeter
G1 X98.406 Y47.487 E12.28277 ; perimeter
G1 X101.078 Y47.487 E12.46123 ; perimeter
G1 X101.078 Y49.487 E12.59484 ; perimeter
G1 X101.581 Y49.487 E12.62849 ; perimeter
G1 X101.581 Y48.987 E12.66189 ; perimeter
G1 X104.253 Y48.987 E12.84035 ; perimeter
G1 X104.253 Y49.487 E12.87375 ; perimeter
G1 X104.756 Y49.487 E12.90740 ; perimeter
G1 X104.756 Y48.487 E12.97421 ; perimeter
G1 X107.428 Y48.487 E13.15266 ; perimeter
G1 X107.428 Y49.487 E13.21947 ; perimeter
G1 X107.931 Y49.487 E13.25312 ; perimeter
G1 X107.931 Y48.987 E13.28652 ; perimeter
G1 X110.603 Y48.987 E13.46498 ; perimeter
G1 X110.603 Y49.487 E13.49838 ; perimeter
G1 X111.106 Y49.487 E13.53203 ; perimeter
G1 X111.106 Y47.987 E13.63224 ; perimeter
G1 X113.778 Y47.987 E13.81070 ; perimeter
G1 X113.778 Y49.487 E13.91090 ; perimeter
G1 X114.281 Y49.487 E13.94456 ; perimeter
G1 X114.281 Y48.987 E13.97796 ; perimeter
G1 X116.953 Y48.987 E14.15641 ; perimeter
G1 X116.953 Y49.487 E14.18982 ; perimeter
G1 X117.456 Y49.487 E14.22347 ; perimeter
G1 X117.456 Y48.487 E14.29028 ; perimeter
G1 X120.128 Y48.487 E14.46873 ; perimeter
G1 X120.128 Y49.487 E14.53553 ; perimeter
G1 X120.631 Y49.487 E14.56919 ; perimeter
G1 X120.631 Y48.987 E14.60259 ; perimeter
G1 X123.303 Y48.987 E14.78104 ; perimeter
G1 X123.303 Y49.487 E14.81445 ; perimeter
G1 X123.806 Y49.487 E14.84810 ; perimeter
G1 X123.806 Y47.487 E14.98171 ; perimeter
G1 X126.478 Y47.487 E15.16016 ; perimeter
G1 X126.478 Y49.487 E15.29378 ; perimeter
G1 X126.981 Y49.487 E15.32743 ; perimeter
G1 X126.981 Y48.987 E15.36083 ; perimeter
G1 X129.653 Y48.987 E15.53929 ; perimeter
G1 X129.653 Y49.487 E15.57269 ; perimeter
G1 X130.156 Y49.487 E15.60634 ; perimeter
G1 X130.156 Y48.487 E15.67315 ; perimeter
G1 X132.828 Y48.487 E15.85160 ; perimeter
G1 X132.828 Y49.487 E15.91841 ; perimeter
G1 X133.331 Y49.487 E15.95206 ; perimeter
G1 X133.331 Y48.987 E15.98546 ; perimeter
G1 X136.003 Y48.987 E16.16392 ; perimeter
G1 X136.003 Y49.487 E16.19732 ; perimeter
G1 X136.506 Y49.487 E16.23097 ; perimeter
G1 X136.506 Y47.987 E16.33118 ; perimeter
G1 X139.178 Y47.987 E16.50963 ; perimeter
G1 X139.178 Y49.487 E16.60984 ; perimeter
G1 X139.681 Y49.487 E16.64350 ; perimeter
G1 X139.681 Y48.987 E16.67690 ; perimeter
G1 X142.353 Y48.987 E16.85535 ; perimeter
G1 X142.353 Y49.487 E16.88875 ; perimeter
G1 X142.856 Y49.487 E16.92241 ; perimeter
G1 X142.856 Y48.487 E16.98921 ; perimeter
G1 X145.528 Y48.487 E17.16767 ; perimeter
G1 X145.528 Y49.487 E17.23447 ; perimeter
G1 X146.031 Y49.487 E17.26813 ; perimeter
G1 X146.031 Y48.987 E17.30153 ; perimeter
G1 X148.703 Y48.987 E17.47998 ; perimeter
G1 X148.703 Y52.658 E17.72524 ; perimeter
G1 X146.031 Y52.658 E17.90369 ; perimeter
G1 X146.031 Y52.158 E17.93710 ; perimeter
G1 X145.528 Y52.158 E17.97075 ; perimeter
G1 X145.528 Y53.158 E18.03756 ; perimeter
G1 X142.856 Y53.158 E18.21601 ; perimeter
G1 X142.856 Y52.158 E18.28281 ; perimeter
G1 X142.353 Y52.158 E18.31647 ; perimeter
G1 X142.353 Y52.658 E18.34987 ; perimeter
G1 X139.681 Y52.658 E18.52832 ; perimeter
G1 X139.681 Y52.158 E18.56173 ; perimeter
G1 X139.178 Y52.158 E18.59538 ; perimeter
G1 X139.178 Y53.658 E18.69559 ; perimeter
G1 X136.506 Y53.658 E18.87404 ; perimeter
G1 X136.506 Y52.158 E18.97425 ; perimeter
G1 X136.003 Y52.158 E19.00790 ; perimeter
G1 X136.003 Y52.658 E19.04131 ; perimeter
G1 X133.331 Y52.658 E19.21976 ; perimeter
G1 X133.331 Y52.158 E19.25316 ; perimeter
G1 X132.828 Y52.158 E19.28682 ; perimeter
G1 X132.828 Y53.158 E19.35362 ; perimeter
G1 X130.156 Y53.158 E19.53208 ; perimeter
G1 X130.156 Y52.158 E19.59888 ; perimeter
G1 X129.653 Y52.158 E19.63254 ; perimeter
G1 X129.653 Y52.658 E19.66594 ; perimeter
G1 X126.981 Y52.658 E19.84439 ; perimeter
G1 X126.981 Y52.158 E19.87779 ; perimeter
G1 X126.478 Y52.158 E19.91145 ; perimeter
G1 X126.478 Y54.158 E20.04506 ; perimeter
G1 X123.806 Y54.158 E20.22351 ; perimeter
G1 X123.806 Y52.158 E20.35712 ; perimeter
G1 X123.303 Y52.158 E20.39078 ; perimeter
G1 X123.303 Y52.658 E20.42418 ; perimeter
G1 X120.631 Y52.658 E20.60263 ; perimeter
G1 X120.631 Y52.158 E20.63604 ; perimeter
G1 X120.128 Y52.158 E20.66969 ; perimeter
G1 X120.128 Y53.158 E20.73649 ; perimeter
G1 X117.456 Y53.158 E20.91495 ; perimeter
G1 X117.456 Y52.158 E20.98175 ; perimeter
G1 X116.953 Y52.158 E21.01541 ; perimeter
G1 X116.953 Y52.658 E21.04881 ; perimeter
G1 X114.281 Y52.658 E21.22726 ; perimeter
G1 X114.281 Y52.158 E21.26067 ; perimeter
G1 X113.778 Y52.158 E21.29432 ; perimeter
G1 X113.778 Y53.658 E21.39453 ; perimeter
G1 X111.106 Y53.658 E21.57298 ; perimeter
G1 X111.106 Y52.158 E21.67319 ; perimeter
G1 X110.603 Y52.158 E21.70684 ; perimeter
G1 X110.603 Y52.658 E21.74025 ; perimeter
G1 X107.931 Y52.658 E21.91870 ; perimeter
G1 X107.931 Y52.158 E21.95210 ; perimeter
G1 X107.428 Y52.158 E21.98576 ; perimeter
G1 X107.428 Y53.158 E22.05256 ; perimeter
G1 X104.756 Y53.158 E22.23101 ; perimeter
G1 X104.756 Y52.158 E22.29782 ; perimeter
G1 X104.253 Y52.158 E22.33147 ; perimeter
G1 X104.253 Y52.658 E22.36488 ; perimeter
G1 X101.581 Y52.658 E22.54333 ; perimeter
G1 X101.581 Y52.158 E22.57673 ; perimeter
G1 X101.078 Y52.158 E22.61039 ; perimeter
G1 X101.078 Y54.158 E22.74400 ; perimeter
G1 X98.466 Y54.158 E22.91844 ; perimeter
G1 X98.942 Y53.623 F9000.000 ; move to first perimeter point
G1 X98.942 Y51.623 E23.05205 F450.000 ; perimeter
G1 X97.367 Y51.623 E23.15727 ; perimeter
G1 X97.367 Y52.123 E23.19067 ; perimeter
G1 X95.767 Y52.123 E23.29756 ; perimeter
G1 X95.767 Y51.623 E23.33097 ; perimeter
G1 X94.192 Y51.623 E23.43618 ; perimeter
G1 X94.192 Y52.623 E23.50299 ; perimeter
G1 X92.592 Y52.623 E23.60988 ; perimeter
G1 X92.592 Y51.623 E23.67668 ; perimeter
G1 X91.017 Y51.623 E23.78190 ; perimeter
G1 X91.017 Y52.123 E23.81530 ; perimeter
G1 X89.417 Y52.123 E23.92219 ; perimeter
G1 X89.417 Y51.623 E23.95560 ; perimeter
G1 X87.842 Y51.623 E24.06081 ; perimeter
G1 X87.842 Y53.123 E24.16102 ; perimeter
G1 X86.242 Y53.123 E24.26791 ; perimeter
G1 X86.242 Y51.623 E24.36812 ; perimeter
G1 X84.667 Y51.623 E24.47334 ; perimeter
G1 X84.667 Y52.123 E24.50674 ; perimeter
G1 X83.067 Y52.123 E24.61363 ; perimeter
G1 X83.067 Y51.623 E24.64703 ; perimeter
G1 X81.492 Y51.623 E24.75225 ; perimeter
G1 X81.492 Y52.623 E24.81906 ; perimeter
G1 X79.892 Y52.623 E24.92594 ; perimeter
G1 X79.892 Y51.623 E24.99275 ; perimeter
G1 X78.317 Y51.623 E25.09797 ; perimeter
G1 X78.317 Y52.123 E25.13137 ; perimeter
G1 X76.717 Y52.123 E25.23826 ; perimeter
G1 X76.717 Y51.623 E25.27166 ; perimeter
G1 X75.142 Y51.623 E25.37688 ; perimeter
G1 X75.142 Y53.623 E25.51049 ; perimeter
G1 X73.542 Y53.623 E25.61738 ; perimeter
G1 X73.542 Y51.623 E25.75099 ; perimeter
G1 X71.967 Y51.623 E25.85621 ; perimeter
G1 X71.967 Y52.123 E25.88961 ; perimeter
G1 X70.367 Y52.123 E25.99650 ; perimeter
G1 X70.367 Y51.623 E26.02990 ; perimeter
G1 X68.792 Y51.623 E26.13512 ; perimeter
G1 X68.792 Y52.623 E26.20193 ; perimeter
G1 X67.192 Y52.623 E26.30882 ; perimeter
G1 X67.192 Y51.623 E26.37562 ; perimeter
G1 X65.617 Y51.623 E26.48084 ; perimeter
G1 X65.617 Y52.123 E26.51424 ; perimeter
G1 X64.017 Y52.123 E26.62113 ; perimeter
G1 X64.017 Y51.623 E26.65453 ; perimeter
G1 X62.442 Y51.623 E26.75975 ; perimeter
G1 X62.442 Y53.123 E26.85996 ; perimeter
G1 X60.842 Y53.123 E26.96685 ; perimeter
G1 X60.842 Y51.623 E27.06706 ; perimeter
G1 X59.267 Y51.623 E27.17228 ; perimeter
G1 X59.267 Y52.123 E27.20568 ; perimeter
G1 X57.667 Y52.123 E27.31257 ; perimeter
G1 X57.667 Y51.623 E27.34597 ; perimeter
G1 X56.092 Y51.623 E27.45119 ; perimeter
G1 X56.092 Y52.623 E27.51800 ; perimeter
G1 X54.492 Y52.623 E27.62488 ; perimeter
G1 X54.492 Y51.623 E27.69169 ; perimeter
G1 X52.917 Y51.623 E27.79691 ; perimeter
G1 X52.917 Y52.123 E27.83031 ; perimeter
G1 X51.317 Y52.123 E27.93720 ; perimeter
G1 X51.317 Y49.523 E28.11089 ; perimeter
G1 X52.917 Y49.523 E28.21778 ; perimeter
G1 X52.917 Y50.023 E28.25118 ; perimeter
G1 X54.492 Y50.023 E28.35640 ; perimeter
G1 X54.492 Y49.023 E28.42321 ; perimeter
G1 X56.092 Y49.023 E28.53010 ; perimeter
G1 X56.092 Y50.023 E28.59690 ; perimeter
G1 X57.667 Y50.023 E28.70212 ; perimeter
G1 X57.667 Y49.523 E28.73552 ; perimeter
G1 X59.267 Y49.523 E28.84241 ; perimeter
G1 X59.267 Y50.023 E28.87582 ; perimeter
G1 X60.842 Y50.023 E28.98103 ; perimeter
G1 X60.842 Y48.523 E29.08124 ; perimeter
G1 X62.442 Y48.523 E29.18813 ; perimeter
G1 X62.442 Y50.023 E29.28834 ; perimeter
G1 X64.017 Y50.023 E29.39356 ; perimeter
G1 X64.017 Y49.523 E29.42696 ; perimeter
G1 X65.617 Y49.523 E29.53385 ; perimeter
G1 X65.617 Y50.023 E29.56725 ; perimeter
G1 X67.192 Y50.023 E29.67247 ; perimeter
G1 X67.192 Y49.023 E29.73928 ; perimeter
G1 X68.792 Y49.023 E29.84616 ; perimeter
G1 X68.792 Y50.023 E29.91297 ; perimeter
G1 X70.367 Y50.023 E30.01819 ; perimeter
G1 X70.367 Y49.523 E30.05159 ; perimeter
G1 X71.967 Y49.523 E30.15848 ; perimeter
G1 X71.967 Y50.023 E30.19188 ; perimeter
G1 X73.542 Y50.023 E30.29710 ; perimeter
G1 X73.542 Y48.023 E30.43071 ; perimeter
G1 X75.142 Y48.023 E30.53760 ; perimeter
G1 X75.142 Y50.023 E30.67121 ; perimeter
G1 X76.717 Y50.023 E30.77643 ; perimeter
G1 X76.717 Y49.523 E30.80983 ; perimeter
G1 X78.317 Y49.523 E30.91672 ; perimeter
G1 X78.317 Y50.023 E30.95012 ; perimeter
G1 X79.892 Y50.023 E31.05534 ; perimeter
