; generated by Slic3r 1.2.9 on 2016-04-21 at 12:20:32

; Used for printing the edge guides.  
; This is a little faster than the slowest.
; Much slower than "normal" and fills at 100% since there are so few layers.  

; external perimeters extrusion width = 0.40mm
; perimeters extrusion width = 0.67mm
; infill extrusion width = 0.67mm
; solid infill extrusion width = 0.67mm
; top infill extrusion width = 0.67mm

M107 ; disable fan
M190 S60 ; set bed temperature
M104 S210 ; set temperature
G28 ; home all axes
G1 Z5 F5000 ; lift nozzle

M109 S210 ; wait for temperature to be reached
G21 ; set units to millimeters
G90 ; use absolute coordinates
M82 ; use absolute distances for extrusion
G92 E0 ; reset extrusion distance
G1 Z0.300 F9000.000 ; move to next layer (0)
G1 E-1.50000 F2400.00000 ; retract
G92 E0 ; reset extrusion distance
G1 X45.453 Y64.999 F9000.000 ; move to first skirt point
G1 E1.50000 F2400.00000 ; unretract
G1 X48.700 Y64.135 E1.72443 F900.000 ; skirt
G1 X151.300 Y64.135 E8.57866 ; skirt
G1 X153.543 Y64.532 E8.73084 ; skirt
G1 X155.513 Y65.675 E8.88301 F900.000 ; skirt
G1 X156.972 Y67.424 E9.03518 ; skirt
G1 X157.836 Y70.671 E9.25961 ; skirt
G1 X157.836 Y129.329 E13.17828 ; skirt
G1 X157.439 Y131.572 E13.33045 ; skirt
G1 X156.296 Y133.543 E13.48263 ; skirt
G1 X154.547 Y135.001 E13.63480 ; skirt
G1 X151.300 Y135.865 E13.85923 ; skirt
G1 X48.700 Y135.865 E20.71346 ; skirt
G1 X46.457 Y135.468 E20.86563 ; skirt
G1 X44.487 Y134.325 E21.01780 ; skirt
G1 X43.028 Y132.576 E21.16997 ; skirt
G1 X42.164 Y129.329 E21.39440 ; skirt
G1 X42.164 Y70.671 E25.31308 ; skirt
G1 X42.561 Y68.428 E25.46525 ; skirt
G1 X43.704 Y66.457 E25.61742 ; skirt
G1 X45.407 Y65.037 E25.76559 ; skirt
G1 E24.26559 F2400.00000 ; retract
G92 E0 ; reset extrusion distance
G1 X99.164 Y86.707 F9000.000 ; move to first perimeter point
G1 E1.50000 F2400.00000 ; unretract
G1 X99.164 Y84.707 E1.63361 F750.000 ; perimeter
G1 X98.661 Y84.707 E1.66726 ; perimeter
G1 X98.661 Y85.207 E1.70067 ; perimeter
G1 X95.989 Y85.207 E1.87912 ; perimeter
G1 X95.989 Y84.707 E1.91252 ; perimeter
G1 X95.486 Y84.707 E1.94618 ; perimeter
G1 X95.486 Y85.707 E2.01298 ; perimeter
G1 X92.814 Y85.707 E2.19144 ; perimeter
G1 X92.814 Y84.707 E2.25824 ; perimeter
G1 X92.311 Y84.707 E2.29190 ; perimeter
G1 X92.311 Y85.207 E2.32530 ; perimeter
G1 X89.639 Y85.207 E2.50375 ; perimeter
G1 X89.639 Y84.707 E2.53715 ; perimeter
G1 X89.136 Y84.707 E2.57081 ; perimeter
G1 X89.136 Y86.207 E2.67102 ; perimeter
G1 X86.464 Y86.207 E2.84947 ; perimeter
G1 X86.464 Y84.707 E2.94968 ; perimeter
G1 X85.961 Y84.707 E2.98333 ; perimeter
G1 X85.961 Y85.207 E3.01673 ; perimeter
G1 X83.289 Y85.207 E3.19519 ; perimeter
G1 X83.289 Y84.707 E3.22859 ; perimeter
G1 X82.786 Y84.707 E3.26224 ; perimeter
G1 X82.786 Y85.707 E3.32905 ; perimeter
G1 X80.114 Y85.707 E3.50750 ; perimeter
G1 X80.114 Y84.707 E3.57431 ; perimeter
G1 X79.611 Y84.707 E3.60796 ; perimeter
G1 X79.611 Y85.207 E3.64136 ; perimeter
G1 X76.939 Y85.207 E3.81982 ; perimeter
G1 X76.939 Y84.707 E3.85322 ; perimeter
G1 X76.436 Y84.707 E3.88687 ; perimeter
G1 X76.436 Y86.707 E4.02049 ; perimeter
G1 X73.764 Y86.707 E4.19894 ; perimeter
G1 X73.764 Y84.707 E4.33255 ; perimeter
G1 X73.261 Y84.707 E4.36620 ; perimeter
G1 X73.261 Y85.207 E4.39961 ; perimeter
G1 X70.589 Y85.207 E4.57806 ; perimeter
G1 X70.589 Y84.707 E4.61146 ; perimeter
G1 X70.086 Y84.707 E4.64512 ; perimeter
G1 X70.086 Y85.707 E4.71192 ; perimeter
G1 X67.414 Y85.707 E4.89037 ; perimeter
G1 X67.414 Y84.707 E4.95718 ; perimeter
G1 X66.911 Y84.707 E4.99083 ; perimeter
G1 X66.911 Y85.207 E5.02424 ; perimeter
G1 X64.239 Y85.207 E5.20269 ; perimeter
G1 X64.239 Y84.707 E5.23609 ; perimeter
G1 X63.736 Y84.707 E5.26975 ; perimeter
G1 X63.736 Y86.207 E5.36995 ; perimeter
G1 X61.064 Y86.207 E5.54841 ; perimeter
G1 X61.064 Y84.707 E5.64862 ; perimeter
G1 X60.561 Y84.707 E5.68227 ; perimeter
G1 X60.561 Y85.207 E5.71567 ; perimeter
G1 X57.889 Y85.207 E5.89413 ; perimeter
G1 X57.889 Y84.707 E5.92753 ; perimeter
G1 X57.386 Y84.707 E5.96118 ; perimeter
G1 X57.386 Y85.707 E6.02799 ; perimeter
G1 X54.714 Y85.707 E6.20644 ; perimeter
G1 X54.714 Y84.707 E6.27325 ; perimeter
G1 X54.211 Y84.707 E6.30690 ; perimeter
G1 X54.211 Y85.207 E6.34030 ; perimeter
G1 X51.539 Y85.207 E6.51876 ; perimeter
G1 X51.539 Y81.535 E6.76402 ; perimeter
G1 X54.211 Y81.535 E6.94247 ; perimeter
G1 X54.211 Y82.035 E6.97587 ; perimeter
G1 X54.714 Y82.035 E7.00953 ; perimeter
G1 X54.714 Y81.035 E7.07633 ; perimeter
G1 X57.386 Y81.035 E7.25478 ; perimeter
G1 X57.386 Y82.035 E7.32159 ; perimeter
G1 X57.889 Y82.035 E7.35524 ; perimeter
G1 X57.889 Y81.535 E7.38865 ; perimeter
G1 X60.561 Y81.535 E7.56710 ; perimeter
G1 X60.561 Y82.035 E7.60050 ; perimeter
G1 X61.064 Y82.035 E7.63416 ; perimeter
G1 X61.064 Y80.535 E7.73436 ; perimeter
G1 X63.736 Y80.535 E7.91282 ; perimeter
G1 X63.736 Y82.035 E8.01303 ; perimeter
G1 X64.239 Y82.035 E8.04668 ; perimeter
G1 X64.239 Y81.535 E8.08008 ; perimeter
G1 X66.911 Y81.535 E8.25854 ; perimeter
G1 X66.911 Y82.035 E8.29194 ; perimeter
G1 X67.414 Y82.035 E8.32559 ; perimeter
G1 X67.414 Y81.035 E8.39240 ; perimeter
G1 X70.086 Y81.035 E8.57085 ; perimeter
G1 X70.086 Y82.035 E8.63766 ; perimeter
G1 X70.589 Y82.035 E8.67131 ; perimeter
G1 X70.589 Y81.535 E8.70471 ; perimeter
G1 X73.261 Y81.535 E8.88317 ; perimeter
G1 X73.261 Y82.035 E8.91657 ; perimeter
G1 X73.764 Y82.035 E8.95022 ; perimeter
G1 X73.764 Y80.035 E9.08383 ; perimeter
G1 X76.436 Y80.035 E9.26229 ; perimeter
G1 X76.436 Y82.035 E9.39590 ; perimeter
G1 X76.939 Y82.035 E9.42955 ; perimeter
G1 X76.939 Y81.535 E9.46295 ; perimeter
G1 X79.611 Y81.535 E9.64141 ; perimeter
G1 X79.611 Y82.035 E9.67481 ; perimeter
G1 X80.114 Y82.035 E9.70846 ; perimeter
G1 X80.114 Y81.035 E9.77527 ; perimeter
G1 X82.786 Y81.035 E9.95372 ; perimeter
G1 X82.786 Y82.035 E10.02053 ; perimeter
G1 X83.289 Y82.035 E10.05418 ; perimeter
G1 X83.289 Y81.535 E10.08759 ; perimeter
G1 X85.961 Y81.535 E10.26604 ; perimeter
G1 X85.961 Y82.035 E10.29944 ; perimeter
G1 X86.464 Y82.035 E10.33310 ; perimeter
G1 X86.464 Y80.535 E10.43330 ; perimeter
G1 X89.136 Y80.535 E10.61176 ; perimeter
G1 X89.136 Y82.035 E10.71196 ; perimeter
G1 X89.639 Y82.035 E10.74562 ; perimeter
G1 X89.639 Y81.535 E10.77902 ; perimeter
G1 X92.311 Y81.535 E10.95747 ; perimeter
G1 X92.311 Y82.035 E10.99088 ; perimeter
G1 X92.814 Y82.035 E11.02453 ; perimeter
G1 X92.814 Y81.035 E11.09134 ; perimeter
G1 X95.486 Y81.035 E11.26979 ; perimeter
G1 X95.486 Y82.035 E11.33660 ; perimeter
G1 X95.989 Y82.035 E11.37025 ; perimeter
G1 X95.989 Y81.535 E11.40365 ; perimeter
G1 X98.661 Y81.535 E11.58211 ; perimeter
G1 X98.661 Y82.035 E11.61551 ; perimeter
G1 X99.164 Y82.035 E11.64916 ; perimeter
G1 X99.164 Y80.035 E11.78277 ; perimeter
G1 X101.836 Y80.035 E11.96123 ; perimeter
G1 X101.836 Y82.035 E12.09484 ; perimeter
G1 X102.339 Y82.035 E12.12849 ; perimeter
G1 X102.339 Y81.535 E12.16189 ; perimeter
G1 X105.011 Y81.535 E12.34035 ; perimeter
G1 X105.011 Y82.035 E12.37375 ; perimeter
G1 X105.514 Y82.035 E12.40740 ; perimeter
G1 X105.514 Y81.035 E12.47421 ; perimeter
G1 X108.186 Y81.035 E12.65266 ; perimeter
G1 X108.186 Y82.035 E12.71947 ; perimeter
G1 X108.689 Y82.035 E12.75312 ; perimeter
G1 X108.689 Y81.535 E12.78652 ; perimeter
G1 X111.361 Y81.535 E12.96498 ; perimeter
G1 X111.361 Y82.035 E12.99838 ; perimeter
G1 X111.864 Y82.035 E13.03203 ; perimeter
G1 X111.864 Y80.535 E13.13224 ; perimeter
G1 X114.536 Y80.535 E13.31070 ; perimeter
G1 X114.536 Y82.035 E13.41090 ; perimeter
G1 X115.039 Y82.035 E13.44456 ; perimeter
G1 X115.039 Y81.535 E13.47796 ; perimeter
G1 X117.711 Y81.535 E13.65641 ; perimeter
G1 X117.711 Y82.035 E13.68982 ; perimeter
G1 X118.214 Y82.035 E13.72347 ; perimeter
G1 X118.214 Y81.035 E13.79028 ; perimeter
G1 X120.886 Y81.035 E13.96873 ; perimeter
G1 X120.886 Y82.035 E14.03553 ; perimeter
G1 X121.389 Y82.035 E14.06919 ; perimeter
G1 X121.389 Y81.535 E14.10259 ; perimeter
G1 X124.061 Y81.535 E14.28104 ; perimeter
G1 X124.061 Y82.035 E14.31445 ; perimeter
G1 X124.564 Y82.035 E14.34810 ; perimeter
G1 X124.564 Y80.035 E14.48171 ; perimeter
G1 X127.236 Y80.035 E14.66016 ; perimeter
G1 X127.236 Y82.035 E14.79378 ; perimeter
G1 X127.739 Y82.035 E14.82743 ; perimeter
G1 X127.739 Y81.535 E14.86083 ; perimeter
G1 X130.411 Y81.535 E15.03929 ; perimeter
G1 X130.411 Y82.035 E15.07269 ; perimeter
G1 X130.914 Y82.035 E15.10634 ; perimeter
G1 X130.914 Y81.035 E15.17315 ; perimeter
G1 X133.586 Y81.035 E15.35160 ; perimeter
G1 X133.586 Y82.035 E15.41841 ; perimeter
G1 X134.089 Y82.035 E15.45206 ; perimeter
G1 X134.089 Y81.535 E15.48546 ; perimeter
G1 X136.761 Y81.535 E15.66392 ; perimeter
G1 X136.761 Y82.035 E15.69732 ; perimeter
G1 X137.264 Y82.035 E15.73097 ; perimeter
G1 X137.264 Y80.535 E15.83118 ; perimeter
G1 X139.936 Y80.535 E16.00963 ; perimeter
G1 X139.936 Y82.035 E16.10984 ; perimeter
G1 X140.439 Y82.035 E16.14350 ; perimeter
G1 X140.439 Y81.535 E16.17690 ; perimeter
G1 X143.111 Y81.535 E16.35535 ; perimeter
G1 X143.111 Y82.035 E16.38875 ; perimeter
G1 X143.614 Y82.035 E16.42241 ; perimeter
G1 X143.614 Y81.035 E16.48921 ; perimeter
G1 X146.286 Y81.035 E16.66767 ; perimeter
G1 X146.286 Y82.035 E16.73447 ; perimeter
G1 X146.789 Y82.035 E16.76813 ; perimeter
G1 X146.789 Y81.535 E16.80153 ; perimeter
G1 X149.461 Y81.535 E16.97998 ; perimeter
G1 X149.461 Y85.207 E17.22524 ; perimeter
G1 X146.789 Y85.207 E17.40369 ; perimeter
G1 X146.789 Y84.707 E17.43710 ; perimeter
G1 X146.286 Y84.707 E17.47075 ; perimeter
G1 X146.286 Y85.707 E17.53756 ; perimeter
G1 X143.614 Y85.707 E17.71601 ; perimeter
G1 X143.614 Y84.707 E17.78281 ; perimeter
G1 X143.111 Y84.707 E17.81647 ; perimeter
G1 X143.111 Y85.207 E17.84987 ; perimeter
G1 X140.439 Y85.207 E18.02832 ; perimeter
G1 X140.439 Y84.707 E18.06173 ; perimeter
G1 X139.936 Y84.707 E18.09538 ; perimeter
G1 X139.936 Y86.207 E18.19559 ; perimeter
G1 X137.264 Y86.207 E18.37404 ; perimeter
G1 X137.264 Y84.707 E18.47425 ; perimeter
G1 X136.761 Y84.707 E18.50790 ; perimeter
G1 X136.761 Y85.207 E18.54131 ; perimeter
G1 X134.089 Y85.207 E18.71976 ; perimeter
G1 X134.089 Y84.707 E18.75316 ; perimeter
G1 X133.586 Y84.707 E18.78682 ; perimeter
G1 X133.586 Y85.707 E18.85362 ; perimeter
G1 X130.914 Y85.707 E19.03208 ; perimeter
G1 X130.914 Y84.707 E19.09888 ; perimeter
G1 X130.411 Y84.707 E19.13254 ; perimeter
G1 X130.411 Y85.207 E19.16594 ; perimeter
G1 X127.739 Y85.207 E19.34439 ; perimeter
G1 X127.739 Y84.707 E19.37779 ; perimeter
G1 X127.236 Y84.707 E19.41145 ; perimeter
G1 X127.236 Y86.707 E19.54506 ; perimeter
G1 X124.564 Y86.707 E19.72351 ; perimeter
G1 X124.564 Y84.707 E19.85712 ; perimeter
G1 X124.061 Y84.707 E19.89078 ; perimeter
G1 X124.061 Y85.207 E19.92418 ; perimeter
G1 X121.389 Y85.207 E20.10263 ; perimeter
G1 X121.389 Y84.707 E20.13604 ; perimeter
G1 X120.886 Y84.707 E20.16969 ; perimeter
G1 X120.886 Y85.707 E20.23649 ; perimeter
G1 X118.214 Y85.707 E20.41495 ; perimeter
G1 X118.214 Y84.707 E20.48175 ; perimeter
G1 X117.711 Y84.707 E20.51541 ; perimeter
G1 X117.711 Y85.207 E20.54881 ; perimeter
G1 X115.039 Y85.207 E20.72726 ; perimeter
G1 X115.039 Y84.707 E20.76067 ; perimeter
G1 X114.536 Y84.707 E20.79432 ; perimeter
G1 X114.536 Y86.207 E20.89453 ; perimeter
G1 X111.864 Y86.207 E21.07298 ; perimeter
G1 X111.864 Y84.707 E21.17319 ; perimeter
G1 X111.361 Y84.707 E21.20684 ; perimeter
G1 X111.361 Y85.207 E21.24025 ; perimeter
G1 X108.689 Y85.207 E21.41870 ; perimeter
G1 X108.689 Y84.707 E21.45210 ; perimeter
G1 X108.186 Y84.707 E21.48576 ; perimeter
G1 X108.186 Y85.707 E21.55256 ; perimeter
G1 X105.514 Y85.707 E21.73101 ; perimeter
G1 X105.514 Y84.707 E21.79782 ; perimeter
G1 X105.011 Y84.707 E21.83147 ; perimeter
G1 X105.011 Y85.207 E21.86488 ; perimeter
G1 X102.339 Y85.207 E22.04333 ; perimeter
G1 X102.339 Y84.707 E22.07673 ; perimeter
G1 X101.836 Y84.707 E22.11039 ; perimeter
G1 X101.836 Y86.707 E22.24400 ; perimeter
G1 X99.224 Y86.707 E22.41844 ; perimeter
G1 X99.700 Y86.171 F9000.000 ; move to first perimeter point
G1 X99.700 Y84.171 E22.55205 F375.000 ; perimeter
G1 X98.125 Y84.171 E22.65727 ; perimeter
G1 X98.125 Y84.671 E22.69067 ; perimeter
G1 X96.525 Y84.671 E22.79756 ; perimeter
G1 X96.525 Y84.171 E22.83097 ; perimeter
G1 X94.950 Y84.171 E22.93618 ; perimeter
G1 X94.950 Y85.171 E23.00299 ; perimeter
G1 X93.350 Y85.171 E23.10988 ; perimeter
G1 X93.350 Y84.171 E23.17668 ; perimeter
G1 X91.775 Y84.171 E23.28190 ; perimeter
G1 X91.775 Y84.671 E23.31530 ; perimeter
G1 X90.175 Y84.671 E23.42219 ; perimeter
G1 X90.175 Y84.171 E23.45560 ; perimeter
G1 X88.600 Y84.171 E23.56081 ; perimeter
G1 X88.600 Y85.671 E23.66102 ; perimeter
G1 X87.000 Y85.671 E23.76791 ; perimeter
G1 X87.000 Y84.171 E23.86812 ; perimeter
G1 X85.425 Y84.171 E23.97334 ; perimeter
G1 X85.425 Y84.671 E24.00674 ; perimeter
G1 X83.825 Y84.671 E24.11363 ; perimeter
G1 X83.825 Y84.171 E24.14703 ; perimeter
G1 X82.250 Y84.171 E24.25225 ; perimeter
G1 X82.250 Y85.171 E24.31906 ; perimeter
G1 X80.650 Y85.171 E24.42594 ; perimeter
G1 X80.650 Y84.171 E24.49275 ; perimeter
G1 X79.075 Y84.171 E24.59797 ; perimeter
G1 X79.075 Y84.671 E24.63137 ; perimeter
G1 X77.475 Y84.671 E24.73826 ; perimeter
G1 X77.475 Y84.171 E24.77166 ; perimeter
G1 X75.900 Y84.171 E24.87688 ; perimeter
G1 X75.900 Y86.171 E25.01049 ; perimeter
G1 X74.300 Y86.171 E25.11738 ; perimeter
G1 X74.300 Y84.171 E25.25099 ; perimeter
G1 X72.725 Y84.171 E25.35621 ; perimeter
G1 X72.725 Y84.671 E25.38961 ; perimeter
G1 X71.125 Y84.671 E25.49650 ; perimeter
G1 X71.125 Y84.171 E25.52990 ; perimeter
G1 X69.550 Y84.171 E25.63512 ; perimeter
G1 X69.550 Y85.171 E25.70193 ; perimeter
G1 X67.950 Y85.171 E25.80882 ; perimeter
G1 X67.950 Y84.171 E25.87562 ; perimeter
G1 X66.375 Y84.171 E25.98084 ; perimeter
G1 X66.375 Y84.671 E26.01424 ; perimeter
G1 X64.775 Y84.671 E26.12113 ; perimeter
G1 X64.775 Y84.171 E26.15453 ; perimeter
G1 X63.200 Y84.171 E26.25975 ; perimeter
G1 X63.200 Y85.671 E26.35996 ; perimeter
G1 X61.600 Y85.671 E26.46685 ; perimeter
G1 X61.600 Y84.171 E26.56706 ; perimeter
G1 X60.025 Y84.171 E26.67228 ; perimeter
G1 X60.025 Y84.671 E26.70568 ; perimeter
G1 X58.425 Y84.671 E26.81257 ; perimeter
G1 X58.425 Y84.171 E26.84597 ; perimeter
G1 X56.850 Y84.171 E26.95119 ; perimeter
G1 X56.850 Y85.171 E27.01800 ; perimeter
G1 X55.250 Y85.171 E27.12488 ; perimeter
G1 X55.250 Y84.171 E27.19169 ; perimeter
G1 X53.675 Y84.171 E27.29691 ; perimeter
G1 X53.675 Y84.671 E27.33031 ; perimeter
G1 X52.075 Y84.671 E27.43720 ; perimeter
G1 X52.075 Y82.071 E27.61089 ; perimeter
G1 X53.675 Y82.071 E27.71778 ; perimeter
G1 X53.675 Y82.571 E27.75118 ; perimeter
G1 X55.250 Y82.571 E27.85640 ; perimeter
G1 X55.250 Y81.571 E27.92321 ; perimeter
G1 X56.850 Y81.571 E28.03010 ; perimeter
G1 X56.850 Y82.571 E28.09690 ; perimeter
G1 X58.425 Y82.571 E28.20212 ; perimeter
G1 X58.425 Y82.071 E28.23552 ; perimeter
G1 X60.025 Y82.071 E28.34241 ; perimeter
G1 X60.025 Y82.571 E28.37582 ; perimeter
G1 X61.600 Y82.571 E28.48103 ; perimeter
G1 X61.600 Y81.071 E28.58124 ; perimeter
G1 X63.200 Y81.071 E28.68813 ; perimeter
G1 X63.200 Y82.571 E28.78834 ; perimeter
G1 X64.775 Y82.571 E28.89356 ; perimeter
G1 X64.775 Y82.071 E28.92696 ; perimeter
G1 X66.375 Y82.071 E29.03385 ; perimeter
G1 X66.375 Y82.571 E29.06725 ; perimeter
G1 X67.950 Y82.571 E29.17247 ; perimeter
G1 X67.950 Y81.571 E29.23928 ; perimeter
G1 X69.550 Y81.571 E29.34616 ; perimeter
G1 X69.550 Y82.571 E29.41297 ; perimeter
G1 X71.125 Y82.571 E29.51819 ; perimeter
G1 X71.125 Y82.071 E29.55159 ; perimeter
G1 X72.725 Y82.071 E29.65848 ; perimeter
G1 X72.725 Y82.571 E29.69188 ; perimeter
G1 X74.300 Y82.571 E29.79710 ; perimeter
G1 X74.300 Y80.571 E29.93071 ; perimeter
G1 X75.900 Y80.571 E30.03760 ; perimeter
G1 X75.900 Y82.571 E30.17121 ; perimeter
G1 X77.475 Y82.571 E30.27643 ; perimeter
G1 X77.475 Y82.071 E30.30983 ; perimeter
G1 X79.075 Y82.071 E30.41672 ; perimeter
G1 X79.075 Y82.571 E30.45012 ; perimeter
G1 X80.650 Y82.571 E30.55534 ; perimeter
G1 X80.650 Y81.571 E30.62215 ; perimeter
G1 X82.250 Y81.571 E30.72904 ; perimeter
