; generated by Slic3r 1.2.9 on 2016-04-21 at 11:08:49

; Used for printing the edge guides.  Much slower than "normal" and fills at 100% since there are so few layers.

; external perimeters extrusion width = 0.40mm
; perimeters extrusion width = 0.67mm
; infill extrusion width = 0.67mm
; solid infill extrusion width = 0.67mm
; top infill extrusion width = 0.67mm

M107 ; disable fan
M190 S60 ; set bed temperature
M104 S210 ; set temperature
G28 ; home all axes
G1 Z5 F5000 ; lift nozzle

M109 S210 ; wait for temperature to be reached
G21 ; set units to millimeters
G90 ; use absolute coordinates
M82 ; use absolute distances for extrusion
G92 E0 ; reset extrusion distance
G1 Z0.300 F9000.000 ; move to next layer (0)
G1 E-2.00000 F2400.00000 ; retract
G92 E0 ; reset extrusion distance
G1 X44.490 Y36.588 F9000.000 ; move to first skirt point
G1 E2.00000 F2400.00000 ; unretract
G1 X46.248 Y35.139 E2.15217 F1800.000 ; skirt
G1 X49.462 Y34.294 E2.37419 ; skirt
G1 X151.062 Y34.294 E9.16162 ; skirt
G1 X153.305 Y34.691 E9.31379 ; skirt
G1 X155.276 Y35.834 E9.46597 F1800.000 ; skirt
G1 X156.734 Y37.583 E9.61814 ; skirt
G1 X157.598 Y40.830 E9.84257 ; skirt
G1 X157.598 Y67.237 E11.60675 ; skirt
G1 X157.526 Y127.263 E15.61677 ; skirt
G1 X157.073 Y159.263 E17.75477 ; skirt
G1 X156.644 Y161.500 E17.90695 ; skirt
G1 X155.474 Y163.454 E18.05912 ; skirt
G1 X153.704 Y164.888 E18.21129 ; skirt
G1 X150.538 Y165.706 E18.42973 ; skirt
G1 X48.938 Y165.706 E25.21716 ; skirt
G1 X46.695 Y165.309 E25.36934 ; skirt
G1 X44.724 Y164.166 E25.52151 ; skirt
G1 X43.266 Y162.417 E25.67368 ; skirt
G1 X42.402 Y159.170 E25.89811 ; skirt
G1 X42.402 Y132.733 E27.66426 ; skirt
G1 X42.927 Y40.792 E33.80650 ; skirt
G1 X43.336 Y38.552 E33.95868 ; skirt
G1 X44.460 Y36.639 E34.10684 ; skirt
G1 E32.10684 F2400.00000 ; retract
G92 E0 ; reset extrusion distance
G1 X98.927 Y56.865 F9000.000 ; move to first perimeter point
G1 E2.00000 F2400.00000 ; unretract
G1 X98.927 Y54.865 E2.13361 F1500.000 ; perimeter
G1 X98.423 Y54.865 E2.16726 ; perimeter
G1 X98.423 Y55.365 E2.20067 ; perimeter
G1 X95.752 Y55.365 E2.37912 ; perimeter
G1 X95.752 Y54.865 E2.41252 ; perimeter
G1 X95.248 Y54.865 E2.44618 ; perimeter
G1 X95.248 Y55.865 E2.51298 ; perimeter
G1 X92.577 Y55.865 E2.69144 ; perimeter
G1 X92.577 Y54.865 E2.75824 ; perimeter
G1 X92.073 Y54.865 E2.79190 ; perimeter
G1 X92.073 Y55.365 E2.82530 ; perimeter
G1 X89.402 Y55.365 E3.00375 ; perimeter
G1 X89.402 Y54.865 E3.03715 ; perimeter
G1 X88.898 Y54.865 E3.07081 ; perimeter
G1 X88.898 Y56.365 E3.17102 ; perimeter
G1 X86.227 Y56.365 E3.34947 ; perimeter
G1 X86.227 Y54.865 E3.44968 ; perimeter
G1 X85.723 Y54.865 E3.48333 ; perimeter
G1 X85.723 Y55.365 E3.51673 ; perimeter
G1 X83.052 Y55.365 E3.69519 ; perimeter
G1 X83.052 Y54.865 E3.72859 ; perimeter
G1 X82.548 Y54.865 E3.76224 ; perimeter
G1 X82.548 Y55.865 E3.82905 ; perimeter
G1 X79.877 Y55.865 E4.00750 ; perimeter
G1 X79.877 Y54.865 E4.07431 ; perimeter
G1 X79.373 Y54.865 E4.10796 ; perimeter
G1 X79.373 Y55.365 E4.14136 ; perimeter
G1 X76.702 Y55.365 E4.31982 ; perimeter
G1 X76.702 Y54.865 E4.35322 ; perimeter
G1 X76.198 Y54.865 E4.38687 ; perimeter
G1 X76.198 Y56.865 E4.52049 ; perimeter
G1 X73.527 Y56.865 E4.69894 ; perimeter
G1 X73.527 Y54.865 E4.83255 ; perimeter
G1 X73.023 Y54.865 E4.86620 ; perimeter
G1 X73.023 Y55.365 E4.89961 ; perimeter
G1 X70.352 Y55.365 E5.07806 ; perimeter
G1 X70.352 Y54.865 E5.11146 ; perimeter
G1 X69.848 Y54.865 E5.14512 ; perimeter
G1 X69.848 Y55.865 E5.21192 ; perimeter
G1 X67.177 Y55.865 E5.39037 ; perimeter
G1 X67.177 Y54.865 E5.45718 ; perimeter
G1 X66.673 Y54.865 E5.49083 ; perimeter
G1 X66.673 Y55.365 E5.52424 ; perimeter
G1 X64.002 Y55.365 E5.70269 ; perimeter
G1 X64.002 Y54.865 E5.73609 ; perimeter
G1 X63.498 Y54.865 E5.76975 ; perimeter
G1 X63.498 Y56.365 E5.86995 ; perimeter
G1 X60.827 Y56.365 E6.04841 ; perimeter
G1 X60.827 Y54.865 E6.14862 ; perimeter
G1 X60.323 Y54.865 E6.18227 ; perimeter
G1 X60.323 Y55.365 E6.21567 ; perimeter
G1 X57.652 Y55.365 E6.39413 ; perimeter
G1 X57.652 Y54.865 E6.42753 ; perimeter
G1 X57.148 Y54.865 E6.46118 ; perimeter
G1 X57.148 Y55.865 E6.52799 ; perimeter
G1 X54.477 Y55.865 E6.70644 ; perimeter
G1 X54.477 Y54.865 E6.77325 ; perimeter
G1 X53.973 Y54.865 E6.80690 ; perimeter
G1 X53.973 Y55.365 E6.84030 ; perimeter
G1 X51.302 Y55.365 E7.01876 ; perimeter
G1 X51.302 Y51.694 E7.26402 ; perimeter
G1 X53.973 Y51.694 E7.44247 ; perimeter
G1 X53.973 Y52.194 E7.47587 ; perimeter
G1 X54.477 Y52.194 E7.50953 ; perimeter
G1 X54.477 Y51.194 E7.57633 ; perimeter
G1 X57.148 Y51.194 E7.75478 ; perimeter
G1 X57.148 Y52.194 E7.82159 ; perimeter
G1 X57.652 Y52.194 E7.85524 ; perimeter
G1 X57.652 Y51.694 E7.88865 ; perimeter
G1 X60.323 Y51.694 E8.06710 ; perimeter
G1 X60.323 Y52.194 E8.10050 ; perimeter
G1 X60.827 Y52.194 E8.13416 ; perimeter
G1 X60.827 Y50.694 E8.23436 ; perimeter
G1 X63.498 Y50.694 E8.41282 ; perimeter
G1 X63.498 Y52.194 E8.51303 ; perimeter
G1 X64.002 Y52.194 E8.54668 ; perimeter
G1 X64.002 Y51.694 E8.58008 ; perimeter
G1 X66.673 Y51.694 E8.75854 ; perimeter
G1 X66.673 Y52.194 E8.79194 ; perimeter
G1 X67.177 Y52.194 E8.82559 ; perimeter
G1 X67.177 Y51.194 E8.89240 ; perimeter
G1 X69.848 Y51.194 E9.07085 ; perimeter
G1 X69.848 Y52.194 E9.13766 ; perimeter
G1 X70.352 Y52.194 E9.17131 ; perimeter
G1 X70.352 Y51.694 E9.20471 ; perimeter
G1 X73.023 Y51.694 E9.38317 ; perimeter
G1 X73.023 Y52.194 E9.41657 ; perimeter
G1 X73.527 Y52.194 E9.45022 ; perimeter
G1 X73.527 Y50.194 E9.58383 ; perimeter
G1 X76.198 Y50.194 E9.76229 ; perimeter
G1 X76.198 Y52.194 E9.89590 ; perimeter
G1 X76.702 Y52.194 E9.92955 ; perimeter
G1 X76.702 Y51.694 E9.96295 ; perimeter
G1 X79.373 Y51.694 E10.14141 ; perimeter
G1 X79.373 Y52.194 E10.17481 ; perimeter
G1 X79.877 Y52.194 E10.20846 ; perimeter
G1 X79.877 Y51.194 E10.27527 ; perimeter
G1 X82.548 Y51.194 E10.45372 ; perimeter
G1 X82.548 Y52.194 E10.52053 ; perimeter
G1 X83.052 Y52.194 E10.55418 ; perimeter
G1 X83.052 Y51.694 E10.58759 ; perimeter
G1 X85.723 Y51.694 E10.76604 ; perimeter
G1 X85.723 Y52.194 E10.79944 ; perimeter
G1 X86.227 Y52.194 E10.83310 ; perimeter
G1 X86.227 Y50.694 E10.93330 ; perimeter
G1 X88.898 Y50.694 E11.11176 ; perimeter
G1 X88.898 Y52.194 E11.21196 ; perimeter
G1 X89.402 Y52.194 E11.24562 ; perimeter
G1 X89.402 Y51.694 E11.27902 ; perimeter
G1 X92.073 Y51.694 E11.45747 ; perimeter
G1 X92.073 Y52.194 E11.49088 ; perimeter
G1 X92.577 Y52.194 E11.52453 ; perimeter
G1 X92.577 Y51.194 E11.59134 ; perimeter
G1 X95.248 Y51.194 E11.76979 ; perimeter
G1 X95.248 Y52.194 E11.83660 ; perimeter
G1 X95.752 Y52.194 E11.87025 ; perimeter
G1 X95.752 Y51.694 E11.90365 ; perimeter
G1 X98.423 Y51.694 E12.08211 ; perimeter
G1 X98.423 Y52.194 E12.11551 ; perimeter
G1 X98.927 Y52.194 E12.14916 ; perimeter
G1 X98.927 Y50.194 E12.28277 ; perimeter
G1 X101.598 Y50.194 E12.46123 ; perimeter
G1 X101.598 Y52.194 E12.59484 ; perimeter
G1 X102.102 Y52.194 E12.62849 ; perimeter
G1 X102.102 Y51.694 E12.66189 ; perimeter
G1 X104.773 Y51.694 E12.84035 ; perimeter
G1 X104.773 Y52.194 E12.87375 ; perimeter
G1 X105.277 Y52.194 E12.90740 ; perimeter
G1 X105.277 Y51.194 E12.97421 ; perimeter
G1 X107.948 Y51.194 E13.15266 ; perimeter
G1 X107.948 Y52.194 E13.21947 ; perimeter
G1 X108.452 Y52.194 E13.25312 ; perimeter
G1 X108.452 Y51.694 E13.28652 ; perimeter
G1 X111.123 Y51.694 E13.46498 ; perimeter
G1 X111.123 Y52.194 E13.49838 ; perimeter
G1 X111.627 Y52.194 E13.53203 ; perimeter
G1 X111.627 Y50.694 E13.63224 ; perimeter
G1 X114.298 Y50.694 E13.81070 ; perimeter
G1 X114.298 Y52.194 E13.91090 ; perimeter
G1 X114.802 Y52.194 E13.94456 ; perimeter
G1 X114.802 Y51.694 E13.97796 ; perimeter
G1 X117.473 Y51.694 E14.15641 ; perimeter
G1 X117.473 Y52.194 E14.18982 ; perimeter
G1 X117.977 Y52.194 E14.22347 ; perimeter
G1 X117.977 Y51.194 E14.29028 ; perimeter
G1 X120.648 Y51.194 E14.46873 ; perimeter
G1 X120.648 Y52.194 E14.53553 ; perimeter
G1 X121.152 Y52.194 E14.56919 ; perimeter
G1 X121.152 Y51.694 E14.60259 ; perimeter
G1 X123.823 Y51.694 E14.78104 ; perimeter
G1 X123.823 Y52.194 E14.81445 ; perimeter
G1 X124.327 Y52.194 E14.84810 ; perimeter
G1 X124.327 Y50.194 E14.98171 ; perimeter
G1 X126.998 Y50.194 E15.16016 ; perimeter
G1 X126.998 Y52.194 E15.29378 ; perimeter
G1 X127.502 Y52.194 E15.32743 ; perimeter
G1 X127.502 Y51.694 E15.36083 ; perimeter
G1 X130.173 Y51.694 E15.53929 ; perimeter
G1 X130.173 Y52.194 E15.57269 ; perimeter
G1 X130.677 Y52.194 E15.60634 ; perimeter
G1 X130.677 Y51.194 E15.67315 ; perimeter
G1 X133.348 Y51.194 E15.85160 ; perimeter
G1 X133.348 Y52.194 E15.91841 ; perimeter
G1 X133.852 Y52.194 E15.95206 ; perimeter
G1 X133.852 Y51.694 E15.98546 ; perimeter
G1 X136.523 Y51.694 E16.16392 ; perimeter
G1 X136.523 Y52.194 E16.19732 ; perimeter
G1 X137.027 Y52.194 E16.23097 ; perimeter
G1 X137.027 Y50.694 E16.33118 ; perimeter
G1 X139.698 Y50.694 E16.50963 ; perimeter
G1 X139.698 Y52.194 E16.60984 ; perimeter
G1 X140.202 Y52.194 E16.64350 ; perimeter
G1 X140.202 Y51.694 E16.67690 ; perimeter
G1 X142.873 Y51.694 E16.85535 ; perimeter
G1 X142.873 Y52.194 E16.88875 ; perimeter
G1 X143.377 Y52.194 E16.92241 ; perimeter
G1 X143.377 Y51.194 E16.98921 ; perimeter
G1 X146.048 Y51.194 E17.16767 ; perimeter
G1 X146.048 Y52.194 E17.23447 ; perimeter
G1 X146.552 Y52.194 E17.26813 ; perimeter
G1 X146.552 Y51.694 E17.30153 ; perimeter
G1 X149.223 Y51.694 E17.47998 ; perimeter
G1 X149.223 Y55.365 E17.72524 ; perimeter
G1 X146.552 Y55.365 E17.90369 ; perimeter
G1 X146.552 Y54.865 E17.93710 ; perimeter
G1 X146.048 Y54.865 E17.97075 ; perimeter
G1 X146.048 Y55.865 E18.03756 ; perimeter
G1 X143.377 Y55.865 E18.21601 ; perimeter
G1 X143.377 Y54.865 E18.28281 ; perimeter
G1 X142.873 Y54.865 E18.31647 ; perimeter
G1 X142.873 Y55.365 E18.34987 ; perimeter
G1 X140.202 Y55.365 E18.52832 ; perimeter
G1 X140.202 Y54.865 E18.56173 ; perimeter
G1 X139.698 Y54.865 E18.59538 ; perimeter
G1 X139.698 Y56.365 E18.69559 ; perimeter
G1 X137.027 Y56.365 E18.87404 ; perimeter
G1 X137.027 Y54.865 E18.97425 ; perimeter
G1 X136.523 Y54.865 E19.00790 ; perimeter
G1 X136.523 Y55.365 E19.04131 ; perimeter
G1 X133.852 Y55.365 E19.21976 ; perimeter
G1 X133.852 Y54.865 E19.25316 ; perimeter
G1 X133.348 Y54.865 E19.28682 ; perimeter
G1 X133.348 Y55.865 E19.35362 ; perimeter
G1 X130.677 Y55.865 E19.53208 ; perimeter
G1 X130.677 Y54.865 E19.59888 ; perimeter
G1 X130.173 Y54.865 E19.63254 ; perimeter
G1 X130.173 Y55.365 E19.66594 ; perimeter
G1 X127.502 Y55.365 E19.84439 ; perimeter
G1 X127.502 Y54.865 E19.87779 ; perimeter
G1 X126.998 Y54.865 E19.91145 ; perimeter
G1 X126.998 Y56.865 E20.04506 ; perimeter
G1 X124.327 Y56.865 E20.22351 ; perimeter
G1 X124.327 Y54.865 E20.35712 ; perimeter
G1 X123.823 Y54.865 E20.39078 ; perimeter
G1 X123.823 Y55.365 E20.42418 ; perimeter
G1 X121.152 Y55.365 E20.60263 ; perimeter
G1 X121.152 Y54.865 E20.63604 ; perimeter
G1 X120.648 Y54.865 E20.66969 ; perimeter
G1 X120.648 Y55.865 E20.73649 ; perimeter
G1 X117.977 Y55.865 E20.91495 ; perimeter
G1 X117.977 Y54.865 E20.98175 ; perimeter
G1 X117.473 Y54.865 E21.01541 ; perimeter
G1 X117.473 Y55.365 E21.04881 ; perimeter
G1 X114.802 Y55.365 E21.22726 ; perimeter
G1 X114.802 Y54.865 E21.26067 ; perimeter
G1 X114.298 Y54.865 E21.29432 ; perimeter
G1 X114.298 Y56.365 E21.39453 ; perimeter
G1 X111.627 Y56.365 E21.57298 ; perimeter
G1 X111.627 Y54.865 E21.67319 ; perimeter
G1 X111.123 Y54.865 E21.70684 ; perimeter
G1 X111.123 Y55.365 E21.74025 ; perimeter
G1 X108.452 Y55.365 E21.91870 ; perimeter
G1 X108.452 Y54.865 E21.95210 ; perimeter
G1 X107.948 Y54.865 E21.98576 ; perimeter
G1 X107.948 Y55.865 E22.05256 ; perimeter
G1 X105.277 Y55.865 E22.23101 ; perimeter
G1 X105.277 Y54.865 E22.29782 ; perimeter
G1 X104.773 Y54.865 E22.33147 ; perimeter
G1 X104.773 Y55.365 E22.36488 ; perimeter
G1 X102.102 Y55.365 E22.54333 ; perimeter
G1 X102.102 Y54.865 E22.57673 ; perimeter
G1 X101.598 Y54.865 E22.61039 ; perimeter
G1 X101.598 Y56.865 E22.74400 ; perimeter
G1 X98.987 Y56.865 E22.91844 ; perimeter
G1 X99.462 Y56.330 F9000.000 ; move to first perimeter point
G1 X99.462 Y54.330 E23.05205 F1125.000 ; perimeter
G1 X97.887 Y54.330 E23.15727 ; perimeter
G1 X97.887 Y54.830 E23.19067 ; perimeter
G1 X96.287 Y54.830 E23.29756 ; perimeter
G1 X96.287 Y54.330 E23.33097 ; perimeter
G1 X94.712 Y54.330 E23.43618 ; perimeter
G1 X94.712 Y55.330 E23.50299 ; perimeter
G1 X93.112 Y55.330 E23.60988 ; perimeter
G1 X93.112 Y54.330 E23.67668 ; perimeter
G1 X91.537 Y54.330 E23.78190 ; perimeter
G1 X91.537 Y54.830 E23.81530 ; perimeter
G1 X89.937 Y54.830 E23.92219 ; perimeter
G1 X89.937 Y54.330 E23.95560 ; perimeter
G1 X88.362 Y54.330 E24.06081 ; perimeter
G1 X88.362 Y55.830 E24.16102 ; perimeter
G1 X86.762 Y55.830 E24.26791 ; perimeter
G1 X86.762 Y54.330 E24.36812 ; perimeter
G1 X85.187 Y54.330 E24.47334 ; perimeter
G1 X85.187 Y54.830 E24.50674 ; perimeter
G1 X83.587 Y54.830 E24.61363 ; perimeter
G1 X83.587 Y54.330 E24.64703 ; perimeter
G1 X82.012 Y54.330 E24.75225 ; perimeter
G1 X82.012 Y55.330 E24.81906 ; perimeter
G1 X80.412 Y55.330 E24.92594 ; perimeter
G1 X80.412 Y54.330 E24.99275 ; perimeter
G1 X78.837 Y54.330 E25.09797 ; perimeter
G1 X78.837 Y54.830 E25.13137 ; perimeter
G1 X77.237 Y54.830 E25.23826 ; perimeter
G1 X77.237 Y54.330 E25.27166 ; perimeter
G1 X75.662 Y54.330 E25.37688 ; perimeter
G1 X75.662 Y56.330 E25.51049 ; perimeter
G1 X74.062 Y56.330 E25.61738 ; perimeter
G1 X74.062 Y54.330 E25.75099 ; perimeter
G1 X72.487 Y54.330 E25.85621 ; perimeter
G1 X72.487 Y54.830 E25.88961 ; perimeter
G1 X70.887 Y54.830 E25.99650 ; perimeter
G1 X70.887 Y54.330 E26.02990 ; perimeter
G1 X69.312 Y54.330 E26.13512 ; perimeter
G1 X69.312 Y55.330 E26.20193 ; perimeter
G1 X67.712 Y55.330 E26.30882 ; perimeter
G1 X67.712 Y54.330 E26.37562 ; perimeter
G1 X66.137 Y54.330 E26.48084 ; perimeter
G1 X66.137 Y54.830 E26.51424 ; perimeter
G1 X64.537 Y54.830 E26.62113 ; perimeter
G1 X64.537 Y54.330 E26.65453 ; perimeter
G1 X62.962 Y54.330 E26.75975 ; perimeter
G1 X62.962 Y55.830 E26.85996 ; perimeter
G1 X61.362 Y55.830 E26.96685 ; perimeter
G1 X61.362 Y54.330 E27.06706 ; perimeter
G1 X59.787 Y54.330 E27.17228 ; perimeter
G1 X59.787 Y54.830 E27.20568 ; perimeter
G1 X58.187 Y54.830 E27.31257 ; perimeter
G1 X58.187 Y54.330 E27.34597 ; perimeter
G1 X56.612 Y54.330 E27.45119 ; perimeter
G1 X56.612 Y55.330 E27.51800 ; perimeter
G1 X55.012 Y55.330 E27.62488 ; perimeter
G1 X55.012 Y54.330 E27.69169 ; perimeter
G1 X53.437 Y54.330 E27.79691 ; perimeter
G1 X53.437 Y54.830 E27.83031 ; perimeter
G1 X51.837 Y54.830 E27.93720 ; perimeter
G1 X51.837 Y52.230 E28.11089 ; perimeter
G1 X53.437 Y52.230 E28.21778 ; perimeter
G1 X53.437 Y52.730 E28.25118 ; perimeter
G1 X55.012 Y52.730 E28.35640 ; perimeter
G1 X55.012 Y51.730 E28.42321 ; perimeter
G1 X56.612 Y51.730 E28.53010 ; perimeter
G1 X56.612 Y52.730 E28.59690 ; perimeter
G1 X58.187 Y52.730 E28.70212 ; perimeter
G1 X58.187 Y52.230 E28.73552 ; perimeter
G1 X59.787 Y52.230 E28.84241 ; perimeter
G1 X59.787 Y52.730 E28.87582 ; perimeter
G1 X61.362 Y52.730 E28.98103 ; perimeter
G1 X61.362 Y51.230 E29.08124 ; perimeter
G1 X62.962 Y51.230 E29.18813 ; perimeter
G1 X62.962 Y52.730 E29.28834 ; perimeter
G1 X64.537 Y52.730 E29.39356 ; perimeter
G1 X64.537 Y52.230 E29.42696 ; perimeter
G1 X66.137 Y52.230 E29.53385 ; perimeter
G1 X66.137 Y52.730 E29.56725 ; perimeter
G1 X67.712 Y52.730 E29.67247 ; perimeter
G1 X67.712 Y51.730 E29.73928 ; perimeter
G1 X69.312 Y51.730 E29.84616 ; perimeter
G1 X69.312 Y52.730 E29.91297 ; perimeter
G1 X70.887 Y52.730 E30.01819 ; perimeter
G1 X70.887 Y52.230 E30.05159 ; perimeter
G1 X72.487 Y52.230 E30.15848 ; perimeter
G1 X72.487 Y52.730 E30.19188 ; perimeter
G1 X74.062 Y52.730 E30.29710 ; perimeter
G1 X74.062 Y50.730 E30.43071 ; perimeter
G1 X75.662 Y50.730 E30.53760 ; perimeter
G1 X75.662 Y52.730 E30.67121 ; perimeter
G1 X77.237 Y52.730 E30.77643 ; perimeter
G1 X77.237 Y52.230 E30.80983 ; perimeter
G1 X78.837 Y52.230 E30.91672 ; perimeter
G1 X78.837 Y52.730 E30.95012 ; perimeter
G1 X80.412 Y52.730 E31.05534 ; perimeter
