; generated by Slic3r 1.2.9 on 2016-04-21 at 13:31:29

; Used for printing the edge guides.  
; This is a little faster than the slowest.
; Much slower than "normal" and fills at 100% since there are so few layers.  

; external perimeters extrusion width = 0.40mm
; perimeters extrusion width = 0.67mm
; infill extrusion width = 0.67mm
; solid infill extrusion width = 0.67mm
; top infill extrusion width = 0.67mm

M107 ; disable fan
M190 S60 ; set bed temperature
M104 S210 ; set temperature
G28 ; home all axes
G1 Z5 F5000 ; lift nozzle

M109 S210 ; wait for temperature to be reached
G21 ; set units to millimeters
G90 ; use absolute coordinates
M82 ; use absolute distances for extrusion
G92 E0 ; reset extrusion distance
G1 Z0.300 F9000.000 ; move to next layer (0)
G1 E-1.50000 F2400.00000 ; retract
G92 E0 ; reset extrusion distance
G1 X44.010 Y34.812 F9000.000 ; move to first skirt point
G1 E1.50000 F2400.00000 ; unretract
G1 X45.760 Y33.354 E1.65217 F900.000 ; skirt
G1 X49.006 Y32.490 E1.87660 ; skirt
G1 X150.606 Y32.490 E8.66403 ; skirt
G1 X152.849 Y32.887 E8.81620 ; skirt
G1 X154.820 Y34.030 E8.96837 F900.000 ; skirt
G1 X156.279 Y35.779 E9.12054 ; skirt
G1 X157.142 Y38.986 E9.34241 ; skirt
G1 X157.529 Y103.155 E13.62931 ; skirt
G1 X157.529 Y129.622 E15.39745 ; skirt
G1 X157.206 Y161.041 E17.49654 ; skirt
G1 X156.786 Y163.280 E17.64872 ; skirt
G1 X155.624 Y165.239 E17.80089 ; skirt
G1 X153.859 Y166.679 E17.95306 ; skirt
G1 X150.671 Y167.510 E18.17315 ; skirt
G1 X49.071 Y167.510 E24.96058 ; skirt
G1 X46.828 Y167.113 E25.11275 ; skirt
G1 X44.857 Y165.970 E25.26492 ; skirt
G1 X43.399 Y164.221 E25.41710 ; skirt
G1 X42.535 Y160.979 E25.64124 ; skirt
G1 X42.471 Y65.430 E32.02439 ; skirt
G1 X42.471 Y39.026 E33.78835 ; skirt
G1 X42.868 Y36.783 E33.94052 ; skirt
G1 X43.980 Y34.864 E34.08868 ; skirt
G1 E32.58868 F2400.00000 ; retract
G92 E0 ; reset extrusion distance
G1 X98.471 Y55.061 F9000.000 ; move to first perimeter point
G1 E1.50000 F2400.00000 ; unretract
G1 X98.471 Y53.061 E1.63361 F750.000 ; perimeter
G1 X97.967 Y53.061 E1.66726 ; perimeter
G1 X97.967 Y53.561 E1.70067 ; perimeter
G1 X95.296 Y53.561 E1.87912 ; perimeter
G1 X95.296 Y53.061 E1.91252 ; perimeter
G1 X94.792 Y53.061 E1.94618 ; perimeter
G1 X94.792 Y54.061 E2.01298 ; perimeter
G1 X92.121 Y54.061 E2.19144 ; perimeter
G1 X92.121 Y53.061 E2.25824 ; perimeter
G1 X91.617 Y53.061 E2.29190 ; perimeter
G1 X91.617 Y53.561 E2.32530 ; perimeter
G1 X88.946 Y53.561 E2.50375 ; perimeter
G1 X88.946 Y53.061 E2.53715 ; perimeter
G1 X88.442 Y53.061 E2.57081 ; perimeter
G1 X88.442 Y54.561 E2.67102 ; perimeter
G1 X85.771 Y54.561 E2.84947 ; perimeter
G1 X85.771 Y53.061 E2.94968 ; perimeter
G1 X85.267 Y53.061 E2.98333 ; perimeter
G1 X85.267 Y53.561 E3.01673 ; perimeter
G1 X82.596 Y53.561 E3.19519 ; perimeter
G1 X82.596 Y53.061 E3.22859 ; perimeter
G1 X82.092 Y53.061 E3.26224 ; perimeter
G1 X82.092 Y54.061 E3.32905 ; perimeter
G1 X79.421 Y54.061 E3.50750 ; perimeter
G1 X79.421 Y53.061 E3.57431 ; perimeter
G1 X78.917 Y53.061 E3.60796 ; perimeter
G1 X78.917 Y53.561 E3.64136 ; perimeter
G1 X76.246 Y53.561 E3.81982 ; perimeter
G1 X76.246 Y53.061 E3.85322 ; perimeter
G1 X75.742 Y53.061 E3.88687 ; perimeter
G1 X75.742 Y55.061 E4.02049 ; perimeter
G1 X73.071 Y55.061 E4.19894 ; perimeter
G1 X73.071 Y53.061 E4.33255 ; perimeter
G1 X72.567 Y53.061 E4.36620 ; perimeter
G1 X72.567 Y53.561 E4.39961 ; perimeter
G1 X69.896 Y53.561 E4.57806 ; perimeter
G1 X69.896 Y53.061 E4.61146 ; perimeter
G1 X69.392 Y53.061 E4.64512 ; perimeter
G1 X69.392 Y54.061 E4.71192 ; perimeter
G1 X66.721 Y54.061 E4.89037 ; perimeter
G1 X66.721 Y53.061 E4.95718 ; perimeter
G1 X66.217 Y53.061 E4.99083 ; perimeter
G1 X66.217 Y53.561 E5.02424 ; perimeter
G1 X63.546 Y53.561 E5.20269 ; perimeter
G1 X63.546 Y53.061 E5.23609 ; perimeter
G1 X63.042 Y53.061 E5.26975 ; perimeter
G1 X63.042 Y54.561 E5.36995 ; perimeter
G1 X60.371 Y54.561 E5.54841 ; perimeter
G1 X60.371 Y53.061 E5.64862 ; perimeter
G1 X59.867 Y53.061 E5.68227 ; perimeter
G1 X59.867 Y53.561 E5.71567 ; perimeter
G1 X57.196 Y53.561 E5.89413 ; perimeter
G1 X57.196 Y53.061 E5.92753 ; perimeter
G1 X56.692 Y53.061 E5.96118 ; perimeter
G1 X56.692 Y54.061 E6.02799 ; perimeter
G1 X54.021 Y54.061 E6.20644 ; perimeter
G1 X54.021 Y53.061 E6.27325 ; perimeter
G1 X53.517 Y53.061 E6.30690 ; perimeter
G1 X53.517 Y53.561 E6.34030 ; perimeter
G1 X50.846 Y53.561 E6.51876 ; perimeter
G1 X50.846 Y49.890 E6.76402 ; perimeter
G1 X53.517 Y49.890 E6.94247 ; perimeter
G1 X53.517 Y50.390 E6.97587 ; perimeter
G1 X54.021 Y50.390 E7.00953 ; perimeter
G1 X54.021 Y49.390 E7.07633 ; perimeter
G1 X56.692 Y49.390 E7.25478 ; perimeter
G1 X56.692 Y50.390 E7.32159 ; perimeter
G1 X57.196 Y50.390 E7.35524 ; perimeter
G1 X57.196 Y49.890 E7.38865 ; perimeter
G1 X59.867 Y49.890 E7.56710 ; perimeter
G1 X59.867 Y50.390 E7.60050 ; perimeter
G1 X60.371 Y50.390 E7.63416 ; perimeter
G1 X60.371 Y48.890 E7.73436 ; perimeter
G1 X63.042 Y48.890 E7.91282 ; perimeter
G1 X63.042 Y50.390 E8.01303 ; perimeter
G1 X63.546 Y50.390 E8.04668 ; perimeter
G1 X63.546 Y49.890 E8.08008 ; perimeter
G1 X66.217 Y49.890 E8.25854 ; perimeter
G1 X66.217 Y50.390 E8.29194 ; perimeter
G1 X66.721 Y50.390 E8.32559 ; perimeter
G1 X66.721 Y49.390 E8.39240 ; perimeter
G1 X69.392 Y49.390 E8.57085 ; perimeter
G1 X69.392 Y50.390 E8.63766 ; perimeter
G1 X69.896 Y50.390 E8.67131 ; perimeter
G1 X69.896 Y49.890 E8.70471 ; perimeter
G1 X72.567 Y49.890 E8.88317 ; perimeter
G1 X72.567 Y50.390 E8.91657 ; perimeter
G1 X73.071 Y50.390 E8.95022 ; perimeter
G1 X73.071 Y48.390 E9.08383 ; perimeter
G1 X75.742 Y48.390 E9.26229 ; perimeter
G1 X75.742 Y50.390 E9.39590 ; perimeter
G1 X76.246 Y50.390 E9.42955 ; perimeter
G1 X76.246 Y49.890 E9.46295 ; perimeter
G1 X78.917 Y49.890 E9.64141 ; perimeter
G1 X78.917 Y50.390 E9.67481 ; perimeter
G1 X79.421 Y50.390 E9.70846 ; perimeter
G1 X79.421 Y49.390 E9.77527 ; perimeter
G1 X82.092 Y49.390 E9.95372 ; perimeter
G1 X82.092 Y50.390 E10.02053 ; perimeter
G1 X82.596 Y50.390 E10.05418 ; perimeter
G1 X82.596 Y49.890 E10.08759 ; perimeter
G1 X85.267 Y49.890 E10.26604 ; perimeter
G1 X85.267 Y50.390 E10.29944 ; perimeter
G1 X85.771 Y50.390 E10.33310 ; perimeter
G1 X85.771 Y48.890 E10.43330 ; perimeter
G1 X88.442 Y48.890 E10.61176 ; perimeter
G1 X88.442 Y50.390 E10.71196 ; perimeter
G1 X88.946 Y50.390 E10.74562 ; perimeter
G1 X88.946 Y49.890 E10.77902 ; perimeter
G1 X91.617 Y49.890 E10.95747 ; perimeter
G1 X91.617 Y50.390 E10.99088 ; perimeter
G1 X92.121 Y50.390 E11.02453 ; perimeter
G1 X92.121 Y49.390 E11.09134 ; perimeter
G1 X94.792 Y49.390 E11.26979 ; perimeter
G1 X94.792 Y50.390 E11.33660 ; perimeter
G1 X95.296 Y50.390 E11.37025 ; perimeter
G1 X95.296 Y49.890 E11.40365 ; perimeter
G1 X97.967 Y49.890 E11.58211 ; perimeter
G1 X97.967 Y50.390 E11.61551 ; perimeter
G1 X98.471 Y50.390 E11.64916 ; perimeter
G1 X98.471 Y48.390 E11.78277 ; perimeter
G1 X101.142 Y48.390 E11.96123 ; perimeter
G1 X101.142 Y50.390 E12.09484 ; perimeter
G1 X101.646 Y50.390 E12.12849 ; perimeter
G1 X101.646 Y49.890 E12.16189 ; perimeter
G1 X104.317 Y49.890 E12.34035 ; perimeter
G1 X104.317 Y50.390 E12.37375 ; perimeter
G1 X104.821 Y50.390 E12.40740 ; perimeter
G1 X104.821 Y49.390 E12.47421 ; perimeter
G1 X107.492 Y49.390 E12.65266 ; perimeter
G1 X107.492 Y50.390 E12.71947 ; perimeter
G1 X107.996 Y50.390 E12.75312 ; perimeter
G1 X107.996 Y49.890 E12.78652 ; perimeter
G1 X110.667 Y49.890 E12.96498 ; perimeter
G1 X110.667 Y50.390 E12.99838 ; perimeter
G1 X111.171 Y50.390 E13.03203 ; perimeter
G1 X111.171 Y48.890 E13.13224 ; perimeter
G1 X113.842 Y48.890 E13.31070 ; perimeter
G1 X113.842 Y50.390 E13.41090 ; perimeter
G1 X114.346 Y50.390 E13.44456 ; perimeter
G1 X114.346 Y49.890 E13.47796 ; perimeter
G1 X117.017 Y49.890 E13.65641 ; perimeter
G1 X117.017 Y50.390 E13.68982 ; perimeter
G1 X117.521 Y50.390 E13.72347 ; perimeter
G1 X117.521 Y49.390 E13.79028 ; perimeter
G1 X120.192 Y49.390 E13.96873 ; perimeter
G1 X120.192 Y50.390 E14.03553 ; perimeter
G1 X120.696 Y50.390 E14.06919 ; perimeter
G1 X120.696 Y49.890 E14.10259 ; perimeter
G1 X123.367 Y49.890 E14.28104 ; perimeter
G1 X123.367 Y50.390 E14.31445 ; perimeter
G1 X123.871 Y50.390 E14.34810 ; perimeter
G1 X123.871 Y48.390 E14.48171 ; perimeter
G1 X126.542 Y48.390 E14.66016 ; perimeter
G1 X126.542 Y50.390 E14.79378 ; perimeter
G1 X127.046 Y50.390 E14.82743 ; perimeter
G1 X127.046 Y49.890 E14.86083 ; perimeter
G1 X129.717 Y49.890 E15.03929 ; perimeter
G1 X129.717 Y50.390 E15.07269 ; perimeter
G1 X130.221 Y50.390 E15.10634 ; perimeter
G1 X130.221 Y49.390 E15.17315 ; perimeter
G1 X132.892 Y49.390 E15.35160 ; perimeter
G1 X132.892 Y50.390 E15.41841 ; perimeter
G1 X133.396 Y50.390 E15.45206 ; perimeter
G1 X133.396 Y49.890 E15.48546 ; perimeter
G1 X136.067 Y49.890 E15.66392 ; perimeter
G1 X136.067 Y50.390 E15.69732 ; perimeter
G1 X136.571 Y50.390 E15.73097 ; perimeter
G1 X136.571 Y48.890 E15.83118 ; perimeter
G1 X139.242 Y48.890 E16.00963 ; perimeter
G1 X139.242 Y50.390 E16.10984 ; perimeter
G1 X139.746 Y50.390 E16.14350 ; perimeter
G1 X139.746 Y49.890 E16.17690 ; perimeter
G1 X142.417 Y49.890 E16.35535 ; perimeter
G1 X142.417 Y50.390 E16.38875 ; perimeter
G1 X142.921 Y50.390 E16.42241 ; perimeter
G1 X142.921 Y49.390 E16.48921 ; perimeter
G1 X145.592 Y49.390 E16.66767 ; perimeter
G1 X145.592 Y50.390 E16.73447 ; perimeter
G1 X146.096 Y50.390 E16.76813 ; perimeter
G1 X146.096 Y49.890 E16.80153 ; perimeter
G1 X148.767 Y49.890 E16.97998 ; perimeter
G1 X148.767 Y53.561 E17.22524 ; perimeter
G1 X146.096 Y53.561 E17.40369 ; perimeter
G1 X146.096 Y53.061 E17.43710 ; perimeter
G1 X145.592 Y53.061 E17.47075 ; perimeter
G1 X145.592 Y54.061 E17.53756 ; perimeter
G1 X142.921 Y54.061 E17.71601 ; perimeter
G1 X142.921 Y53.061 E17.78281 ; perimeter
G1 X142.417 Y53.061 E17.81647 ; perimeter
G1 X142.417 Y53.561 E17.84987 ; perimeter
G1 X139.746 Y53.561 E18.02832 ; perimeter
G1 X139.746 Y53.061 E18.06173 ; perimeter
G1 X139.242 Y53.061 E18.09538 ; perimeter
G1 X139.242 Y54.561 E18.19559 ; perimeter
G1 X136.571 Y54.561 E18.37404 ; perimeter
G1 X136.571 Y53.061 E18.47425 ; perimeter
G1 X136.067 Y53.061 E18.50790 ; perimeter
G1 X136.067 Y53.561 E18.54131 ; perimeter
G1 X133.396 Y53.561 E18.71976 ; perimeter
G1 X133.396 Y53.061 E18.75316 ; perimeter
G1 X132.892 Y53.061 E18.78682 ; perimeter
G1 X132.892 Y54.061 E18.85362 ; perimeter
G1 X130.221 Y54.061 E19.03208 ; perimeter
G1 X130.221 Y53.061 E19.09888 ; perimeter
G1 X129.717 Y53.061 E19.13254 ; perimeter
G1 X129.717 Y53.561 E19.16594 ; perimeter
G1 X127.046 Y53.561 E19.34439 ; perimeter
G1 X127.046 Y53.061 E19.37779 ; perimeter
G1 X126.542 Y53.061 E19.41145 ; perimeter
G1 X126.542 Y55.061 E19.54506 ; perimeter
G1 X123.871 Y55.061 E19.72351 ; perimeter
G1 X123.871 Y53.061 E19.85712 ; perimeter
G1 X123.367 Y53.061 E19.89078 ; perimeter
G1 X123.367 Y53.561 E19.92418 ; perimeter
G1 X120.696 Y53.561 E20.10263 ; perimeter
G1 X120.696 Y53.061 E20.13604 ; perimeter
G1 X120.192 Y53.061 E20.16969 ; perimeter
G1 X120.192 Y54.061 E20.23649 ; perimeter
G1 X117.521 Y54.061 E20.41495 ; perimeter
G1 X117.521 Y53.061 E20.48175 ; perimeter
G1 X117.017 Y53.061 E20.51541 ; perimeter
G1 X117.017 Y53.561 E20.54881 ; perimeter
G1 X114.346 Y53.561 E20.72726 ; perimeter
G1 X114.346 Y53.061 E20.76067 ; perimeter
G1 X113.842 Y53.061 E20.79432 ; perimeter
G1 X113.842 Y54.561 E20.89453 ; perimeter
G1 X111.171 Y54.561 E21.07298 ; perimeter
G1 X111.171 Y53.061 E21.17319 ; perimeter
G1 X110.667 Y53.061 E21.20684 ; perimeter
G1 X110.667 Y53.561 E21.24025 ; perimeter
G1 X107.996 Y53.561 E21.41870 ; perimeter
G1 X107.996 Y53.061 E21.45210 ; perimeter
G1 X107.492 Y53.061 E21.48576 ; perimeter
G1 X107.492 Y54.061 E21.55256 ; perimeter
G1 X104.821 Y54.061 E21.73101 ; perimeter
G1 X104.821 Y53.061 E21.79782 ; perimeter
G1 X104.317 Y53.061 E21.83147 ; perimeter
G1 X104.317 Y53.561 E21.86488 ; perimeter
G1 X101.646 Y53.561 E22.04333 ; perimeter
G1 X101.646 Y53.061 E22.07673 ; perimeter
G1 X101.142 Y53.061 E22.11039 ; perimeter
G1 X101.142 Y55.061 E22.24400 ; perimeter
G1 X98.531 Y55.061 E22.41844 ; perimeter
G1 X99.006 Y54.526 F9000.000 ; move to first perimeter point
G1 X99.006 Y52.526 E22.55205 F375.000 ; perimeter
G1 X97.431 Y52.526 E22.65727 ; perimeter
G1 X97.431 Y53.026 E22.69067 ; perimeter
G1 X95.831 Y53.026 E22.79756 ; perimeter
G1 X95.831 Y52.526 E22.83097 ; perimeter
G1 X94.256 Y52.526 E22.93618 ; perimeter
G1 X94.256 Y53.526 E23.00299 ; perimeter
G1 X92.656 Y53.526 E23.10988 ; perimeter
G1 X92.656 Y52.526 E23.17668 ; perimeter
G1 X91.081 Y52.526 E23.28190 ; perimeter
G1 X91.081 Y53.026 E23.31530 ; perimeter
G1 X89.481 Y53.026 E23.42219 ; perimeter
G1 X89.481 Y52.526 E23.45560 ; perimeter
G1 X87.906 Y52.526 E23.56081 ; perimeter
G1 X87.906 Y54.026 E23.66102 ; perimeter
G1 X86.306 Y54.026 E23.76791 ; perimeter
G1 X86.306 Y52.526 E23.86812 ; perimeter
G1 X84.731 Y52.526 E23.97334 ; perimeter
G1 X84.731 Y53.026 E24.00674 ; perimeter
G1 X83.131 Y53.026 E24.11363 ; perimeter
G1 X83.131 Y52.526 E24.14703 ; perimeter
G1 X81.556 Y52.526 E24.25225 ; perimeter
G1 X81.556 Y53.526 E24.31906 ; perimeter
G1 X79.956 Y53.526 E24.42594 ; perimeter
G1 X79.956 Y52.526 E24.49275 ; perimeter
G1 X78.381 Y52.526 E24.59797 ; perimeter
G1 X78.381 Y53.026 E24.63137 ; perimeter
G1 X76.781 Y53.026 E24.73826 ; perimeter
G1 X76.781 Y52.526 E24.77166 ; perimeter
G1 X75.206 Y52.526 E24.87688 ; perimeter
G1 X75.206 Y54.526 E25.01049 ; perimeter
G1 X73.606 Y54.526 E25.11738 ; perimeter
G1 X73.606 Y52.526 E25.25099 ; perimeter
G1 X72.031 Y52.526 E25.35621 ; perimeter
G1 X72.031 Y53.026 E25.38961 ; perimeter
G1 X70.431 Y53.026 E25.49650 ; perimeter
G1 X70.431 Y52.526 E25.52990 ; perimeter
G1 X68.856 Y52.526 E25.63512 ; perimeter
G1 X68.856 Y53.526 E25.70193 ; perimeter
G1 X67.256 Y53.526 E25.80882 ; perimeter
G1 X67.256 Y52.526 E25.87562 ; perimeter
G1 X65.681 Y52.526 E25.98084 ; perimeter
G1 X65.681 Y53.026 E26.01424 ; perimeter
G1 X64.081 Y53.026 E26.12113 ; perimeter
G1 X64.081 Y52.526 E26.15453 ; perimeter
G1 X62.506 Y52.526 E26.25975 ; perimeter
G1 X62.506 Y54.026 E26.35996 ; perimeter
G1 X60.906 Y54.026 E26.46685 ; perimeter
G1 X60.906 Y52.526 E26.56706 ; perimeter
G1 X59.331 Y52.526 E26.67228 ; perimeter
G1 X59.331 Y53.026 E26.70568 ; perimeter
G1 X57.731 Y53.026 E26.81257 ; perimeter
G1 X57.731 Y52.526 E26.84597 ; perimeter
G1 X56.156 Y52.526 E26.95119 ; perimeter
G1 X56.156 Y53.526 E27.01800 ; perimeter
G1 X54.556 Y53.526 E27.12488 ; perimeter
G1 X54.556 Y52.526 E27.19169 ; perimeter
G1 X52.981 Y52.526 E27.29691 ; perimeter
G1 X52.981 Y53.026 E27.33031 ; perimeter
G1 X51.381 Y53.026 E27.43720 ; perimeter
G1 X51.381 Y50.426 E27.61089 ; perimeter
G1 X52.981 Y50.426 E27.71778 ; perimeter
G1 X52.981 Y50.926 E27.75118 ; perimeter
G1 X54.556 Y50.926 E27.85640 ; perimeter
G1 X54.556 Y49.926 E27.92321 ; perimeter
G1 X56.156 Y49.926 E28.03010 ; perimeter
G1 X56.156 Y50.926 E28.09690 ; perimeter
G1 X57.731 Y50.926 E28.20212 ; perimeter
G1 X57.731 Y50.426 E28.23552 ; perimeter
G1 X59.331 Y50.426 E28.34241 ; perimeter
G1 X59.331 Y50.926 E28.37582 ; perimeter
G1 X60.906 Y50.926 E28.48103 ; perimeter
G1 X60.906 Y49.426 E28.58124 ; perimeter
G1 X62.506 Y49.426 E28.68813 ; perimeter
G1 X62.506 Y50.926 E28.78834 ; perimeter
G1 X64.081 Y50.926 E28.89356 ; perimeter
G1 X64.081 Y50.426 E28.92696 ; perimeter
G1 X65.681 Y50.426 E29.03385 ; perimeter
G1 X65.681 Y50.926 E29.06725 ; perimeter
G1 X67.256 Y50.926 E29.17247 ; perimeter
G1 X67.256 Y49.926 E29.23928 ; perimeter
G1 X68.856 Y49.926 E29.34616 ; perimeter
G1 X68.856 Y50.926 E29.41297 ; perimeter
G1 X70.431 Y50.926 E29.51819 ; perimeter
G1 X70.431 Y50.426 E29.55159 ; perimeter
G1 X72.031 Y50.426 E29.65848 ; perimeter
G1 X72.031 Y50.926 E29.69188 ; perimeter
G1 X73.606 Y50.926 E29.79710 ; perimeter
G1 X73.606 Y48.926 E29.93071 ; perimeter
G1 X75.206 Y48.926 E30.03760 ; perimeter
G1 X75.206 Y50.926 E30.17121 ; perimeter
G1 X76.781 Y50.926 E30.27643 ; perimeter
G1 X76.781 Y50.426 E30.30983 ; perimeter
G1 X78.381 Y50.426 E30.41672 ; perimeter
G1 X78.381 Y50.926 E30.45012 ; perimeter
