; generated by Slic3r 1.2.9 on 2016-04-21 at 18:26:06

; Used for printing the edge guides.  
; This is a little faster than the slowest.
; Much slower than "normal" and fills at 100% since there are so few layers.  

; external perimeters extrusion width = 0.40mm
; perimeters extrusion width = 0.67mm
; infill extrusion width = 0.67mm
; solid infill extrusion width = 0.67mm
; top infill extrusion width = 0.67mm

M190 S60 ; set bed temperature
M104 S210 ; set temperature
G28 ; home all axes
G1 Z5 F5000 ; lift nozzle

M109 S210 ; wait for temperature to be reached
G21 ; set units to millimeters
G90 ; use absolute coordinates
M82 ; use absolute distances for extrusion
G92 E0 ; reset extrusion distance
G1 Z0.300 F9000.000 ; move to next layer (0)
G1 E-1.50000 F2400.00000 ; retract
G92 E0 ; reset extrusion distance
G1 X43.391 Y25.455 F9000.000 ; move to first skirt point
G1 E1.50000 F2400.00000 ; unretract
G1 X44.483 Y23.593 E1.64419 F900.000 ; skirt
G1 X46.240 Y22.144 E1.79636 ; skirt
G1 X49.458 Y21.297 E2.01865 ; skirt
G1 X151.058 Y21.297 E8.80608 ; skirt
G1 X153.301 Y21.694 E8.95825 ; skirt
G1 X155.272 Y22.836 E9.11042 F900.000 ; skirt
G1 X156.730 Y24.586 E9.26259 ; skirt
G1 X157.594 Y27.832 E9.48702 ; skirt
G1 X157.594 Y54.246 E11.25163 ; skirt
G1 X157.465 Y113.988 E15.24272 ; skirt
G1 X157.077 Y172.211 E19.13241 ; skirt
G1 X156.666 Y174.452 E19.28458 ; skirt
G1 X155.510 Y176.414 E19.43676 ; skirt
G1 X153.751 Y177.861 E19.58893 ; skirt
G1 X150.542 Y178.703 E19.81055 ; skirt
G1 X48.942 Y178.703 E26.59798 ; skirt
G1 X46.699 Y178.306 E26.75015 ; skirt
G1 X44.728 Y177.164 E26.90232 ; skirt
G1 X43.270 Y175.414 E27.05449 ; skirt
G1 X42.406 Y172.168 E27.27892 ; skirt
G1 X42.406 Y145.768 E29.04258 ; skirt
G1 X42.471 Y116.896 E30.97138 ; skirt
G1 X42.923 Y27.799 E36.92361 ; skirt
G1 X43.331 Y25.558 E37.07578 ; skirt
G1 X43.361 Y25.507 E37.07975 ; skirt
G1 E35.57975 F2400.00000 ; retract
G92 E0 ; reset extrusion distance
G1 X49.758 Y53.932 F9000.000 ; move to first perimeter point
G1 E1.50000 F2400.00000 ; unretract
G1 X49.758 Y28.132 E3.22358 F300.000 ; perimeter
G1 X150.758 Y28.132 E9.97093 ; perimeter
G1 X150.758 Y53.932 E11.69451 ; perimeter
G1 X49.818 Y53.932 E18.43784 ; perimeter
G1 X51.833 Y41.832 F9000.000 ; move to first perimeter point
G1 X51.833 Y39.232 E18.61154 F300.000 ; perimeter
G1 X53.433 Y39.232 E18.71843 ; perimeter
G1 X53.433 Y39.732 E18.75183 ; perimeter
G1 X55.008 Y39.732 E18.85705 ; perimeter
G1 X55.008 Y38.732 E18.92385 ; perimeter
G1 X56.608 Y38.732 E19.03074 ; perimeter
G1 X56.608 Y39.732 E19.09755 ; perimeter
G1 X58.183 Y39.732 E19.20277 ; perimeter
G1 X58.183 Y39.232 E19.23617 ; perimeter
G1 X59.783 Y39.232 E19.34306 ; perimeter
G1 X59.783 Y39.732 E19.37646 ; perimeter
G1 X61.358 Y39.732 E19.48168 ; perimeter
G1 X61.358 Y38.232 E19.58189 ; perimeter
G1 X62.958 Y38.232 E19.68878 ; perimeter
G1 X62.958 Y39.732 E19.78898 ; perimeter
G1 X64.533 Y39.732 E19.89420 ; perimeter
G1 X64.533 Y39.232 E19.92760 ; perimeter
G1 X66.133 Y39.232 E20.03449 ; perimeter
G1 X66.133 Y39.732 E20.06790 ; perimeter
G1 X67.708 Y39.732 E20.17311 ; perimeter
G1 X67.708 Y38.732 E20.23992 ; perimeter
G1 X69.308 Y38.732 E20.34681 ; perimeter
G1 X69.308 Y39.732 E20.41361 ; perimeter
G1 X70.883 Y39.732 E20.51883 ; perimeter
G1 X70.883 Y39.232 E20.55224 ; perimeter
G1 X72.483 Y39.232 E20.65912 ; perimeter
G1 X72.483 Y39.732 E20.69253 ; perimeter
G1 X74.058 Y39.732 E20.79775 ; perimeter
G1 X74.058 Y37.732 E20.93136 ; perimeter
G1 X75.658 Y37.732 E21.03824 ; perimeter
G1 X75.658 Y39.732 E21.17186 ; perimeter
G1 X77.233 Y39.732 E21.27707 ; perimeter
G1 X77.233 Y39.232 E21.31048 ; perimeter
G1 X78.833 Y39.232 E21.41737 ; perimeter
G1 X78.833 Y39.732 E21.45077 ; perimeter
G1 X80.408 Y39.732 E21.55599 ; perimeter
G1 X80.408 Y38.732 E21.62279 ; perimeter
G1 X82.008 Y38.732 E21.72968 ; perimeter
G1 X82.008 Y39.732 E21.79649 ; perimeter
G1 X83.583 Y39.732 E21.90170 ; perimeter
G1 X83.583 Y39.232 E21.93511 ; perimeter
G1 X85.183 Y39.232 E22.04200 ; perimeter
G1 X85.183 Y39.732 E22.07540 ; perimeter
G1 X86.758 Y39.732 E22.18062 ; perimeter
G1 X86.758 Y38.232 E22.28083 ; perimeter
G1 X88.358 Y38.232 E22.38771 ; perimeter
G1 X88.358 Y39.732 E22.48792 ; perimeter
G1 X89.933 Y39.732 E22.59314 ; perimeter
G1 X89.933 Y39.232 E22.62654 ; perimeter
G1 X91.533 Y39.232 E22.73343 ; perimeter
G1 X91.533 Y39.732 E22.76683 ; perimeter
G1 X93.108 Y39.732 E22.87205 ; perimeter
G1 X93.108 Y38.732 E22.93886 ; perimeter
G1 X94.708 Y38.732 E23.04575 ; perimeter
G1 X94.708 Y39.732 E23.11255 ; perimeter
G1 X96.283 Y39.732 E23.21777 ; perimeter
G1 X96.283 Y39.232 E23.25117 ; perimeter
G1 X97.883 Y39.232 E23.35806 ; perimeter
G1 X97.883 Y39.732 E23.39147 ; perimeter
G1 X99.458 Y39.732 E23.49668 ; perimeter
G1 X99.458 Y37.732 E23.63029 ; perimeter
G1 X101.058 Y37.732 E23.73718 ; perimeter
G1 X101.058 Y39.732 E23.87079 ; perimeter
G1 X102.633 Y39.732 E23.97601 ; perimeter
G1 X102.633 Y39.232 E24.00942 ; perimeter
G1 X104.233 Y39.232 E24.11630 ; perimeter
G1 X104.233 Y39.732 E24.14971 ; perimeter
G1 X105.808 Y39.732 E24.25493 ; perimeter
G1 X105.808 Y38.732 E24.32173 ; perimeter
G1 X107.408 Y38.732 E24.42862 ; perimeter
G1 X107.408 Y39.732 E24.49542 ; perimeter
G1 X108.983 Y39.732 E24.60064 ; perimeter
G1 X108.983 Y39.232 E24.63405 ; perimeter
G1 X110.583 Y39.232 E24.74093 ; perimeter
G1 X110.583 Y39.732 E24.77434 ; perimeter
G1 X112.158 Y39.732 E24.87956 ; perimeter
G1 X112.158 Y38.232 E24.97976 ; perimeter
G1 X113.758 Y38.232 E25.08665 ; perimeter
G1 X113.758 Y39.732 E25.18686 ; perimeter
G1 X115.333 Y39.732 E25.29208 ; perimeter
G1 X115.333 Y39.232 E25.32548 ; perimeter
G1 X116.933 Y39.232 E25.43237 ; perimeter
G1 X116.933 Y39.732 E25.46577 ; perimeter
G1 X118.508 Y39.732 E25.57099 ; perimeter
G1 X118.508 Y38.732 E25.63780 ; perimeter
G1 X120.108 Y38.732 E25.74469 ; perimeter
G1 X120.108 Y39.732 E25.81149 ; perimeter
G1 X121.683 Y39.732 E25.91671 ; perimeter
G1 X121.683 Y39.232 E25.95011 ; perimeter
G1 X123.283 Y39.232 E26.05700 ; perimeter
G1 X123.283 Y39.732 E26.09040 ; perimeter
G1 X124.858 Y39.732 E26.19562 ; perimeter
G1 X124.858 Y37.732 E26.32923 ; perimeter
G1 X126.458 Y37.732 E26.43612 ; perimeter
G1 X126.458 Y39.732 E26.56973 ; perimeter
G1 X128.033 Y39.732 E26.67495 ; perimeter
G1 X128.033 Y39.232 E26.70835 ; perimeter
G1 X129.633 Y39.232 E26.81524 ; perimeter
G1 X129.633 Y39.732 E26.84865 ; perimeter
G1 X131.208 Y39.732 E26.95386 ; perimeter
G1 X131.208 Y38.732 E27.02067 ; perimeter
G1 X132.808 Y38.732 E27.12756 ; perimeter
G1 X132.808 Y39.732 E27.19436 ; perimeter
G1 X134.383 Y39.732 E27.29958 ; perimeter
G1 X134.383 Y39.232 E27.33298 ; perimeter
G1 X135.983 Y39.232 E27.43987 ; perimeter
G1 X135.983 Y39.732 E27.47328 ; perimeter
G1 X137.558 Y39.732 E27.57849 ; perimeter
G1 X137.558 Y38.232 E27.67870 ; perimeter
G1 X139.158 Y38.232 E27.78559 ; perimeter
G1 X139.158 Y39.732 E27.88580 ; perimeter
G1 X140.733 Y39.732 E27.99102 ; perimeter
G1 X140.733 Y39.232 E28.02442 ; perimeter
G1 X142.333 Y39.232 E28.13131 ; perimeter
G1 X142.333 Y39.732 E28.16471 ; perimeter
G1 X143.908 Y39.732 E28.26993 ; perimeter
G1 X143.908 Y38.732 E28.33674 ; perimeter
G1 X145.508 Y38.732 E28.44362 ; perimeter
G1 X145.508 Y39.732 E28.51043 ; perimeter
G1 X147.083 Y39.732 E28.61565 ; perimeter
G1 X147.083 Y39.232 E28.64905 ; perimeter
G1 X148.683 Y39.232 E28.75594 ; perimeter
G1 X148.683 Y41.832 E28.92963 ; perimeter
G1 X147.083 Y41.832 E29.03652 ; perimeter
G1 X147.083 Y41.332 E29.06993 ; perimeter
G1 X145.508 Y41.332 E29.17514 ; perimeter
G1 X145.508 Y42.332 E29.24195 ; perimeter
G1 X143.908 Y42.332 E29.34884 ; perimeter
G1 X143.908 Y41.332 E29.41564 ; perimeter
G1 X142.333 Y41.332 E29.52086 ; perimeter
G1 X142.333 Y41.832 E29.55426 ; perimeter
G1 X140.733 Y41.832 E29.66115 ; perimeter
G1 X140.733 Y41.332 E29.69456 ; perimeter
G1 X139.158 Y41.332 E29.79977 ; perimeter
G1 X139.158 Y42.832 E29.89998 ; perimeter
G1 X137.558 Y42.832 E30.00687 ; perimeter
G1 X137.558 Y41.332 E30.10708 ; perimeter
G1 X135.983 Y41.332 E30.21230 ; perimeter
G1 X135.983 Y41.832 E30.24570 ; perimeter
G1 X134.383 Y41.832 E30.35259 ; perimeter
G1 X134.383 Y41.332 E30.38599 ; perimeter
G1 X132.808 Y41.332 E30.49121 ; perimeter
G1 X132.808 Y42.332 E30.55802 ; perimeter
G1 X131.208 Y42.332 E30.66490 ; perimeter
G1 X131.208 Y41.332 E30.73171 ; perimeter
G1 X129.633 Y41.332 E30.83693 ; perimeter
G1 X129.633 Y41.832 E30.87033 ; perimeter
G1 X128.033 Y41.832 E30.97722 ; perimeter
G1 X128.033 Y41.332 E31.01062 ; perimeter
G1 X126.458 Y41.332 E31.11584 ; perimeter
G1 X126.458 Y43.332 E31.24945 ; perimeter
G1 X124.858 Y43.332 E31.35634 ; perimeter
G1 X124.858 Y41.332 E31.48995 ; perimeter
G1 X123.283 Y41.332 E31.59517 ; perimeter
G1 X123.283 Y41.832 E31.62857 ; perimeter
G1 X121.683 Y41.832 E31.73546 ; perimeter
G1 X121.683 Y41.332 E31.76886 ; perimeter
G1 X120.108 Y41.332 E31.87408 ; perimeter
G1 X120.108 Y42.332 E31.94089 ; perimeter
G1 X118.508 Y42.332 E32.04778 ; perimeter
G1 X118.508 Y41.332 E32.11458 ; perimeter
G1 X116.933 Y41.332 E32.21980 ; perimeter
G1 X116.933 Y41.832 E32.25320 ; perimeter
G1 X115.333 Y41.832 E32.36009 ; perimeter
G1 X115.333 Y41.332 E32.39349 ; perimeter
G1 X113.758 Y41.332 E32.49871 ; perimeter
G1 X113.758 Y42.832 E32.59892 ; perimeter
G1 X112.158 Y42.832 E32.70581 ; perimeter
G1 X112.158 Y41.332 E32.80602 ; perimeter
G1 X110.583 Y41.332 E32.91124 ; perimeter
G1 X110.583 Y41.832 E32.94464 ; perimeter
G1 X108.983 Y41.832 E33.05153 ; perimeter
G1 X108.983 Y41.332 E33.08493 ; perimeter
G1 X107.408 Y41.332 E33.19015 ; perimeter
G1 X107.408 Y42.332 E33.25695 ; perimeter
G1 X105.808 Y42.332 E33.36384 ; perimeter
G1 X105.808 Y41.332 E33.43065 ; perimeter
G1 X104.233 Y41.332 E33.53587 ; perimeter
G1 X104.233 Y41.832 E33.56927 ; perimeter
G1 X102.633 Y41.832 E33.67616 ; perimeter
G1 X102.633 Y41.332 E33.70956 ; perimeter
G1 X101.058 Y41.332 E33.81478 ; perimeter
G1 X101.058 Y43.332 E33.94839 ; perimeter
G1 X99.458 Y43.332 E34.05528 ; perimeter
G1 X99.458 Y41.332 E34.18889 ; perimeter
G1 X97.883 Y41.332 E34.29411 ; perimeter
G1 X97.883 Y41.832 E34.32751 ; perimeter
G1 X96.283 Y41.832 E34.43440 ; perimeter
G1 X96.283 Y41.332 E34.46780 ; perimeter
G1 X94.708 Y41.332 E34.57302 ; perimeter
G1 X94.708 Y42.332 E34.63983 ; perimeter
G1 X93.108 Y42.332 E34.74671 ; perimeter
G1 X93.108 Y41.332 E34.81352 ; perimeter
G1 X91.533 Y41.332 E34.91874 ; perimeter
G1 X91.533 Y41.832 E34.95214 ; perimeter
G1 X89.933 Y41.832 E35.05903 ; perimeter
G1 X89.933 Y41.332 E35.09243 ; perimeter
G1 X88.358 Y41.332 E35.19765 ; perimeter
G1 X88.358 Y42.832 E35.29786 ; perimeter
G1 X86.758 Y42.832 E35.40475 ; perimeter
G1 X86.758 Y41.332 E35.50496 ; perimeter
G1 X85.183 Y41.332 E35.61017 ; perimeter
G1 X85.183 Y41.832 E35.64358 ; perimeter
G1 X83.583 Y41.832 E35.75047 ; perimeter
G1 X83.583 Y41.332 E35.78387 ; perimeter
G1 X82.008 Y41.332 E35.88909 ; perimeter
G1 X82.008 Y42.332 E35.95589 ; perimeter
G1 X80.408 Y42.332 E36.06278 ; perimeter
G1 X80.408 Y41.332 E36.12959 ; perimeter
G1 X78.833 Y41.332 E36.23481 ; perimeter
G1 X78.833 Y41.832 E36.26821 ; perimeter
G1 X77.233 Y41.832 E36.37510 ; perimeter
G1 X77.233 Y41.332 E36.40850 ; perimeter
G1 X75.658 Y41.332 E36.51372 ; perimeter
G1 X75.658 Y43.332 E36.64733 ; perimeter
G1 X74.058 Y43.332 E36.75422 ; perimeter
G1 X74.058 Y41.332 E36.88783 ; perimeter
G1 X72.483 Y41.332 E36.99305 ; perimeter
G1 X72.483 Y41.832 E37.02645 ; perimeter
G1 X70.883 Y41.832 E37.13334 ; perimeter
G1 X70.883 Y41.332 E37.16674 ; perimeter
G1 X69.308 Y41.332 E37.27196 ; perimeter
G1 X69.308 Y42.332 E37.33876 ; perimeter
G1 X67.708 Y42.332 E37.44565 ; perimeter
G1 X67.708 Y41.332 E37.51246 ; perimeter
G1 X66.133 Y41.332 E37.61768 ; perimeter
G1 X66.133 Y41.832 E37.65108 ; perimeter
G1 X64.533 Y41.832 E37.75797 ; perimeter
G1 X64.533 Y41.332 E37.79137 ; perimeter
G1 X62.958 Y41.332 E37.89659 ; perimeter
G1 X62.958 Y42.832 E37.99680 ; perimeter
G1 X61.358 Y42.832 E38.10369 ; perimeter
G1 X61.358 Y41.332 E38.20389 ; perimeter
G1 X59.783 Y41.332 E38.30911 ; perimeter
G1 X59.783 Y41.832 E38.34252 ; perimeter
G1 X58.183 Y41.832 E38.44941 ; perimeter
G1 X58.183 Y41.332 E38.48281 ; perimeter
G1 X56.608 Y41.332 E38.58803 ; perimeter
G1 X56.608 Y42.332 E38.65483 ; perimeter
G1 X55.008 Y42.332 E38.76172 ; perimeter
G1 X55.008 Y41.332 E38.82853 ; perimeter
G1 X53.433 Y41.332 E38.93374 ; perimeter
G1 X53.433 Y41.832 E38.96715 ; perimeter
G1 X51.893 Y41.832 E39.07003 ; perimeter
G1 X51.845 Y42.154 F9000.000 ; move to first infill point
G1 X63.302 Y53.611 E40.15898 F300.000 ; infill
G1 X64.064 Y53.611 E40.21020 ; infill
G1 X52.607 Y42.154 E41.29915 ; infill
G1 X53.369 Y42.154 F9000.000 ; move to first infill point
G1 X64.826 Y53.611 E42.38811 F300.000 ; infill
G1 X65.588 Y53.611 E42.43933 ; infill
G1 X54.631 Y42.654 E43.48076 ; infill
G1 X54.686 Y41.947 E43.52842 ; infill
G1 X54.394 Y41.654 E43.55626 ; infill
G1 X53.755 Y41.777 F9000.000 ; move to first infill point
G1 X54.686 Y42.709 E43.64482 F300.000 ; infill
G1 X55.394 Y42.654 E43.69249 ; infill
G1 X66.350 Y53.611 E44.73392 ; infill
G1 X67.112 Y53.611 E44.78514 ; infill
G1 X56.156 Y42.654 E45.82657 ; infill
G1 X56.918 Y42.654 E45.87779 ; infill
G1 X67.874 Y53.611 E46.91922 ; infill
G1 X68.636 Y53.611 E46.97043 ; infill
G1 X56.930 Y41.904 E48.08315 ; infill
G1 X57.442 Y41.654 E48.12145 ; infill
G1 X69.399 Y53.611 E49.25793 ; infill
G1 X70.161 Y53.611 E49.30915 ; infill
G1 X58.704 Y42.154 E50.39810 ; infill
G1 X60.490 Y41.654 F9000.000 ; move to first infill point
G1 X61.036 Y42.200 E50.45004 F300.000 ; infill
G1 X61.036 Y42.962 E50.50126 ; infill
G1 X60.105 Y42.031 E50.58982 ; infill
G1 X59.466 Y42.154 E50.63354 ; infill
G1 X70.923 Y53.611 E51.72249 ; infill
G1 X71.685 Y53.611 E51.77371 ; infill
G1 X61.228 Y43.154 E52.76762 ; infill
G1 X61.990 Y43.154 E52.81884 ; infill
G1 X72.447 Y53.611 E53.81274 ; infill
G1 X73.209 Y53.611 E53.86396 ; infill
G1 X62.752 Y43.154 E54.85786 ; infill
G1 X63.280 Y42.919 F9000.000 ; move to first infill point
G1 X73.971 Y53.611 E55.87406 F300.000 ; infill
G1 X74.733 Y53.611 E55.92528 ; infill
G1 X63.280 Y42.157 E57.01390 ; infill
G1 X63.538 Y41.654 E57.05194 ; infill
G1 X75.495 Y53.611 E58.18842 ; infill
G1 X76.257 Y53.611 E58.23964 ; infill
G1 X64.800 Y42.154 E59.32859 ; infill
G1 X65.562 Y42.154 E59.37981 ; infill
G1 X77.019 Y53.611 E60.46877 ; infill
G1 X77.781 Y53.611 E60.51998 ; infill
G1 X66.325 Y42.154 E61.60894 ; infill
G1 X66.587 Y41.654 E61.64688 ; infill
G1 X78.543 Y53.611 E62.78336 ; infill
G1 X79.305 Y53.611 E62.83458 ; infill
G1 X68.349 Y42.654 E63.87601 ; infill
G1 X69.111 Y42.654 E63.92722 ; infill
G1 X80.067 Y53.611 E64.96865 ; infill
G1 X80.830 Y53.611 E65.01987 ; infill
G1 X69.630 Y42.411 E66.08441 ; infill
G1 X69.635 Y41.654 F9000.000 ; move to first infill point
G1 X81.592 Y53.611 E67.22089 F300.000 ; infill
G1 X80.542 Y42.654 F9000.000 ; move to first infill point
G1 X91.498 Y53.611 E68.26232 F300.000 ; infill
G1 X92.261 Y53.611 E68.31353 ; infill
G1 X81.304 Y42.654 E69.35496 ; infill
G1 X82.066 Y42.654 E69.40618 ; infill
G1 X93.023 Y53.611 E70.44761 ; infill
G1 X93.785 Y53.611 E70.49883 ; infill
G1 X82.330 Y42.156 E71.58762 ; infill
G1 X82.590 Y41.654 E71.62561 ; infill
G1 X94.547 Y53.611 E72.76209 ; infill
G1 X95.309 Y53.611 E72.81331 ; infill
G1 X83.852 Y42.154 E73.90226 ; infill
G1 X84.614 Y42.154 E73.95348 ; infill
G1 X96.071 Y53.611 E75.04243 ; infill
G1 X96.833 Y53.611 E75.09365 ; infill
G1 X86.376 Y43.154 E76.08756 ; infill
G1 X86.436 Y42.452 E76.13490 ; infill
G1 X85.638 Y41.654 E76.21076 ; infill
G1 X85.376 Y42.154 E76.24870 ; infill
G1 X86.436 Y43.214 E76.34948 ; infill
G1 X87.138 Y43.154 E76.39682 ; infill
G1 X97.595 Y53.611 E77.39073 ; infill
G1 X98.357 Y53.611 E77.44194 ; infill
G1 X87.900 Y43.154 E78.43585 ; infill
G1 X88.662 Y43.154 E78.48707 ; infill
G1 X99.119 Y53.611 E79.48097 ; infill
G1 X99.881 Y53.611 E79.53219 ; infill
G1 X88.680 Y42.409 E80.59689 ; infill
G1 X88.687 Y41.654 F9000.000 ; move to first infill point
G1 X100.643 Y53.611 E81.73337 F300.000 ; infill
